; generated by PrusaSlicer 2.3.0+win64 on 2021-11-28 at 14:37:52 UTC

; 

; external perimeters extrusion width = 0.45mm
; perimeters extrusion width = 0.45mm
; infill extrusion width = 0.45mm
; solid infill extrusion width = 0.45mm
; top infill extrusion width = 0.40mm
; first layer extrusion width = 0.42mm

; external perimeters extrusion width = 0.45mm
; perimeters extrusion width = 0.45mm
; infill extrusion width = 0.45mm
; solid infill extrusion width = 0.45mm
; top infill extrusion width = 0.40mm
; first layer extrusion width = 0.42mm

M73 P0 R45
M73 Q0 S45
M201 X1000 Y1000 Z200 E5000 ; sets maximum accelerations, mm/sec^2
M203 X200 Y200 Z12 E120 ; sets maximum feedrates, mm/sec
M204 P1250 R1250 T1250 ; sets acceleration (P, T) and retract acceleration (R), mm/sec^2
M205 X8.00 Y8.00 Z0.40 E4.50 ; sets the jerk limits, mm/sec
M205 S0 T0 ; sets the minimum extruding and travel feed rate, mm/sec
M107
;TYPE:Custom
M862.3 P "MK3SMMU2S" ; printer model check
M862.1 P0.4 ; nozzle diameter check
M115 U3.9.3 ; tell printer latest fw version
G90 ; use absolute coordinates
M83 ; extruder relative mode
M104 S215 ; set extruder temp
M140 S60 ; set bed temp
Tx
M190 S60 ; wait for bed temp
M109 S215 ; wait for extruder temp
G28 W ; home all without mesh bed level
G80 ; mesh bed leveling

;go outside print area
G1 Y-3.0 F1000.0
G1 Z0.4 F1000.0
; select extruder
Tc
; purge line
G1 X55.0 F2000.0
G1 Z0.3 F1000.0
G92 E0.0
G1 X240.0 E25.0 F2200.0
G1 Y-2.0 F1000.0
G1 X55.0 E25 F1400.0
G1 Z0.20 F1000.0
G1 X5.0 E4.0 F1000.0

M221 S95
G92 E0.0

; Don't change E values below. Excessive value can damage the printer.
M907 E430 ; set extruder motor current
G21 ; set units to millimeters
G90 ; use absolute coordinates
M83 ; use relative distances for extrusion
M900 K0.05 ; Filament gcode LA 1.5
M900 K30 ; Filament gcode LA 1.0
;LAYER_CHANGE
;Z:0.2
;HEIGHT:0.2
;BEFORE_LAYER_CHANGE
G92 E0.0
;0.2


M73 P0 R44
G1 E-0.80000 F2100.000
G1 Z0.400 F10800.000
;AFTER_LAYER_CHANGE
;0.2
G1 X96.902 Y99.266
G1 Z0.200
G1 E0.80000 F2100.000
M204 S1000
;TYPE:Skirt
;WIDTH:0.42
G1 F1200.000
G1 X97.355 Y98.544 E0.02673
G1 X105.073 Y90.210 E0.35614
G1 X105.995 Y89.441 E0.03766
G1 X106.855 Y88.984 E0.03052
G1 X150.193 Y75.580 E1.42234
G1 X150.894 Y75.475 E0.02225
G1 X151.775 Y75.646 E0.02813
G1 X152.530 Y76.132 E0.02813
G1 X153.053 Y76.866 E0.02825
G1 X153.264 Y77.738 E0.02813
G1 X153.267 Y109.894 E1.00825
G1 X153.099 Y110.730 E0.02673
G1 X152.645 Y111.456 E0.02684
G1 X144.925 Y119.792 E0.35626
G1 X143.995 Y120.565 E0.03790
G1 X143.100 Y121.035 E0.03171
G1 X99.756 Y134.435 E1.42247
M73 P1 R44
M73 Q1 S45
G1 X99.163 Y134.524 E0.01882
G1 X98.562 Y134.461 E0.01894
G1 X97.997 Y134.248 E0.01894
G1 X97.506 Y133.902 E0.01882
G1 X97.180 Y133.536 E0.01538
G1 X96.936 Y133.110 E0.01538
G1 X96.785 Y132.643 E0.01538
G1 X96.733 Y132.160 E0.01526
G1 X96.733 Y100.102 E1.00514
G1 X96.890 Y99.325 E0.02484
; printing object ArrayBracketSupport.stl id:1 copy 0
;WIPE_START
G1 F8640.000
G1 X97.355 Y98.544 E-0.20984
G1 X98.974 Y96.796 E-0.55016
;WIPE_END
G1 E-0.04000 F2100.000
G1 Z0.600 F10800.000
G1 X107.027 Y94.608
G1 Z0.200
G1 E0.80000 F2100.000
;TYPE:External perimeter
G1 F1200.000
G1 X106.950 Y94.382 E0.00747
G1 X106.901 Y94.149 E0.00747
G1 X106.880 Y93.912 E0.00747
G1 X106.887 Y93.674 E0.00747
G1 X106.922 Y93.438 E0.00747
G1 X106.985 Y93.208 E0.00747
G1 X107.075 Y92.988 E0.00747
G1 X107.190 Y92.779 E0.00747
G1 X107.332 Y92.581 E0.00766
G1 X107.650 Y92.270 E0.01393
G1 X107.867 Y92.121 E0.00824
G1 X108.080 Y92.012 E0.00750
G1 X108.303 Y91.929 E0.00747
G1 X108.534 Y91.873 E0.00747
G1 X108.771 Y91.845 E0.00747
G1 X109.009 Y91.845 E0.00747
G1 X109.246 Y91.873 E0.00747
G1 X109.477 Y91.929 E0.00747
G1 X109.701 Y92.012 E0.00747
G1 X109.913 Y92.121 E0.00747
G1 X110.110 Y92.254 E0.00747
G1 X110.291 Y92.410 E0.00747
G1 X110.451 Y92.585 E0.00747
G1 X110.590 Y92.779 E0.00747
G1 X110.705 Y92.988 E0.00747
G1 X110.795 Y93.208 E0.00747
G1 X110.858 Y93.438 E0.00747
G1 X110.893 Y93.674 E0.00747
G1 X110.900 Y93.912 E0.00747
G1 X110.879 Y94.149 E0.00747
G1 X110.828 Y94.388 E0.00766
G1 X110.663 Y94.800 E0.01393
G1 X110.521 Y95.029 E0.00843
G1 X110.222 Y95.358 E0.01396
G1 X110.014 Y95.520 E0.00824
G1 X109.808 Y95.641 E0.00750
G1 X109.590 Y95.737 E0.00747
G1 X109.362 Y95.807 E0.00747
G1 X109.128 Y95.849 E0.00747
G1 X108.890 Y95.863 E0.00747
G1 X108.652 Y95.849 E0.00747
G1 X108.418 Y95.807 E0.00747
G1 X108.190 Y95.737 E0.00747
G1 X107.966 Y95.639 E0.00766
G1 X107.597 Y95.392 E0.01393
G1 X107.407 Y95.210 E0.00824
G1 X107.256 Y95.025 E0.00750
G1 X107.053 Y94.662 E0.01304
G1 X106.790 Y94.580 F10800.000
;WIPE_START
G1 F8640.000
G1 X106.950 Y94.382 E-0.06879
G1 X106.901 Y94.149 E-0.05501
G1 X106.880 Y93.912 E-0.05501
G1 X106.887 Y93.674 E-0.05501
G1 X106.922 Y93.438 E-0.05500
G1 X106.985 Y93.208 E-0.05501
G1 X107.075 Y92.988 E-0.05501
G1 X107.190 Y92.779 E-0.05501
G1 X107.332 Y92.581 E-0.05639
G1 X107.650 Y92.270 E-0.10257
G1 X107.867 Y92.121 E-0.06068
G1 X108.080 Y92.012 E-0.05523
G1 X108.207 Y91.965 E-0.03128
;WIPE_END
G1 E-0.04000 F2100.000
G1 Z0.600 F10800.000
G1 X118.111 Y94.487
G1 Z0.200
G1 E0.80000 F2100.000
;TYPE:Perimeter
G1 F1200.000
G1 X118.111 Y93.217 E0.03982
G1 X145.877 Y84.646 E0.91113
G1 X145.877 Y103.059 E0.57731
G1 X118.168 Y94.505 E0.90925
G1 X118.488 Y94.209 F10800.000
;TYPE:External perimeter
G1 F1200.000
G1 X118.488 Y93.496 E0.02237
G1 X145.500 Y85.157 E0.88639
G1 X145.500 Y102.548 E0.54526
G1 X118.545 Y94.227 E0.88451
G1 X118.090 Y94.252 F10800.000
;WIPE_START
G1 F8640.000
G1 X118.488 Y93.496 E-0.16936
G1 X120.932 Y92.741 E-0.59064
;WIPE_END
G1 E-0.04000 F2100.000
G1 Z0.600 F10800.000
G1 X109.344 Y96.193
G1 Z0.200
G1 E0.80000 F2100.000
;TYPE:Perimeter
G1 F1200.000
G1 X109.722 Y96.091 E0.01226
G1 X109.981 Y95.977 E0.00887
G1 X110.227 Y95.832 E0.00896
G1 X110.479 Y95.636 E0.01001
G1 X110.824 Y95.257 E0.01607
G1 X111.000 Y94.971 E0.01054
G1 X111.191 Y94.498 E0.01598
G1 X111.252 Y94.205 E0.00940
G1 X111.277 Y93.923 E0.00887
G1 X111.269 Y93.640 E0.00887
G1 X111.227 Y93.360 E0.00887
G1 X111.153 Y93.087 E0.00887
G1 X111.046 Y92.825 E0.00887
G1 X110.910 Y92.577 E0.00887
G1 X110.745 Y92.347 E0.00887
G1 X110.554 Y92.139 E0.00887
G1 X110.339 Y91.954 E0.00887
G1 X110.105 Y91.796 E0.00887
G1 X109.853 Y91.667 E0.00887
G1 X109.588 Y91.568 E0.00887
G1 X109.329 Y91.506 E0.00834
G1 X150.103 Y78.919 E1.33796
G1 X150.103 Y108.785 E0.93644
G1 X109.402 Y96.211 E1.33568
;WIPE_START
G1 F8640.000
G1 X109.722 Y96.091 E-0.07889
G1 X109.981 Y95.977 E-0.06534
G1 X110.227 Y95.832 E-0.06597
G1 X110.479 Y95.636 E-0.07373
G1 X110.824 Y95.257 E-0.11831
G1 X111.000 Y94.971 E-0.07759
G1 X111.191 Y94.498 E-0.11768
G1 X111.252 Y94.205 E-0.06920
G1 X111.277 Y93.923 E-0.06534
G1 X111.274 Y93.802 E-0.02793
;WIPE_END
G1 E-0.04000 F2100.000
G1 Z0.600 F10800.000
G1 X150.480 Y109.297
G1 Z0.200
G1 E0.80000 F2100.000
;TYPE:External perimeter
G1 F1200.000
G1 X107.951 Y96.157 E1.39567
M73 Q1 S44
G1 X107.563 Y95.958 E0.01367
G1 X107.216 Y95.694 E0.01367
G1 X106.917 Y95.370 E0.01381
G1 X106.797 Y95.199 E0.00655
G1 X106.592 Y94.809 E0.01381
G1 X106.461 Y94.394 E0.01367
G1 X106.403 Y93.961 E0.01367
G1 X106.423 Y93.526 E0.01367
G1 X106.518 Y93.096 E0.01381
G1 X106.590 Y92.900 E0.00655
G1 X106.795 Y92.509 E0.01381
G1 X107.064 Y92.161 E0.01381
G1 X107.215 Y92.010 E0.00670
G1 X107.380 Y91.874 E0.00670
G1 X107.752 Y91.639 E0.01381
G1 X108.169 Y91.469 E0.01410
G1 X150.480 Y78.408 E1.38842
G1 X150.480 Y109.237 E0.96661
G1 X150.102 Y109.166 F10800.000
;WIPE_START
G1 F8640.000
G1 X147.334 Y108.269 E-0.76000
;WIPE_END
G1 E-0.04000 F2100.000
G1 Z0.600 F10800.000
G1 X116.820 Y89.311
G1 Z0.200
G1 E0.80000 F2100.000
;TYPE:Solid infill
;WIDTH:0.431519
G1 F1200.000
G1 X117.247 Y89.738 E0.01948
G1 X117.247 Y90.287 E0.01776
G1 X116.536 Y89.577 E0.03247
G1 X116.116 Y89.706 E0.01420
G1 X117.247 Y90.837 E0.05166
G1 X117.247 Y91.386 E0.01776
G1 X115.696 Y89.836 E0.07085
G1 X115.276 Y89.966 E0.01420
G1 X117.247 Y91.936 E0.09004
G1 X117.247 Y92.486 E0.01776
G1 X114.856 Y90.095 E0.10923
G1 X114.436 Y90.225 E0.01420
G1 X117.247 Y93.035 E0.12842
G1 X117.247 Y93.585 E0.01776
G1 X114.017 Y90.355 E0.14761
M73 P2 R44
G1 X113.597 Y90.484 E0.01420
G1 X117.247 Y94.134 E0.16680
M73 Q2 S44
G1 X117.247 Y94.684 E0.01776
G1 X113.177 Y90.614 E0.18599
G1 X112.757 Y90.743 E0.01420
G1 X117.247 Y95.233 E0.20517
G1 X117.247 Y95.783 E0.01776
G1 X112.337 Y90.873 E0.22436
G1 X111.917 Y91.003 E0.01420
G1 X117.247 Y96.332 E0.24355
G1 X117.247 Y96.882 E0.01776
G1 X111.497 Y91.132 E0.26274
G1 X111.077 Y91.262 E0.01420
G1 X117.247 Y97.432 E0.28193
G1 X117.247 Y97.981 E0.01776
G1 X110.657 Y91.392 E0.30112
G1 X110.237 Y91.521 E0.01420
G1 X116.969 Y98.253 E0.30760
G1 X116.173 Y98.007 E0.02689
G1 X111.511 Y93.344 E0.21306
G1 X111.551 Y93.615 E0.00884
G1 X111.560 Y93.943 E0.01059
G1 X115.378 Y97.761 E0.17449
G1 X114.583 Y97.516 E0.02689
G1 X111.495 Y94.427 E0.14112
G1 X111.462 Y94.581 E0.00507
G1 X111.358 Y94.840 E0.00903
G1 X113.788 Y97.270 E0.11103
G1 X112.992 Y97.024 E0.02689
G1 X111.182 Y95.214 E0.08271
G1 X111.050 Y95.428 E0.00811
G1 X110.953 Y95.535 E0.00466
G1 X112.197 Y96.779 E0.05684
G1 X111.402 Y96.533 E0.02689
G1 X110.691 Y95.822 E0.03247
G1 X110.386 Y96.066 E0.01263
G1 X110.864 Y96.544 E0.02183
;WIPE_START
G1 F8640.000
G1 X110.386 Y96.066 E-0.15600
G1 X110.691 Y95.822 E-0.09029
G1 X111.402 Y96.533 E-0.23201
G1 X112.197 Y96.779 E-0.19219
G1 X111.923 Y96.504 E-0.08951
;WIPE_END
G1 E-0.04000 F2100.000
G1 Z0.600 F10800.000
G1 X109.156 Y96.181
G1 Z0.200
G1 E0.80000 F2100.000
;TYPE:Gap fill
;WIDTH:0.235075
G1 F1200.000
G1 X108.755 Y96.124 E0.00647
;WIDTH:0.135203
G1 X108.365 Y96.038 E0.00307
G1 X108.042 Y95.934 E0.00261
G1 X107.694 Y95.750 E0.00302
G1 X107.378 Y95.515 E0.00302
G1 X107.104 Y95.219 E0.00310
G1 X107.003 Y95.074 E0.00136
G1 X106.814 Y94.717 E0.00310
G1 X106.696 Y94.341 E0.00302
G1 X106.643 Y93.951 E0.00302
G1 X106.662 Y93.558 E0.00302
G1 X106.749 Y93.163 E0.00310
G1 X106.864 Y92.884 E0.00232
G1 X106.996 Y92.639 E0.00214
G1 X107.151 Y92.430 E0.00199
G1 X107.380 Y92.192 E0.00254
G1 X107.521 Y92.068 E0.00144
G1 X107.744 Y91.921 E0.00205
G1 X107.987 Y91.796 E0.00210
;WIDTH:0.145801
G1 X108.249 Y91.695 E0.00240
;WIDTH:0.162016
G1 X108.494 Y91.628 E0.00251
;WIDTH:0.211678
G1 X108.760 Y91.572 E0.00381
;WIDTH:0.250609
G1 X108.889 Y91.553 E0.00225
;WIDTH:0.284689
G1 X109.018 Y91.533 E0.00262
G1 X109.145 Y91.664 E0.00367
;WIPE_START
G1 F8640.000
G1 X109.018 Y91.533 E-0.04216
G1 X108.889 Y91.553 E-0.03014
;WIPE_END
G1 E-0.72771 F2100.000
G1 Z0.600 F10800.000
G1 X117.639 Y94.714
G1 Z0.200
G1 E0.80000 F2100.000
;TYPE:Internal infill
;WIDTH:0.42
G1 F1200.000
G1 X117.639 Y97.214 E0.07839
G1 X118.197 Y97.783 E0.02500
G1 X118.536 Y98.220 E0.01734
G1 X118.741 Y98.657 E0.01513
G1 X118.773 Y98.794 E0.00442
G1 X122.098 Y99.822 E0.10914
G1 X122.235 Y99.530 E0.01009
G1 X122.336 Y99.094 E0.01405
G1 X122.348 Y98.657 E0.01370
G1 X122.262 Y98.220 E0.01396
G1 X122.040 Y97.783 E0.01536
G1 X121.656 Y97.347 E0.01824
G1 X121.215 Y96.910 E0.01946
G1 X120.876 Y96.473 E0.01734
G1 X120.671 Y96.036 E0.01513
G1 X120.569 Y95.558 E0.01533
G1 X124.250 Y96.694 E0.12079
G1 X124.360 Y96.910 E0.00758
G1 X124.744 Y97.347 E0.01824
G1 X125.185 Y97.783 E0.01946
G1 X125.524 Y98.220 E0.01734
G1 X125.729 Y98.657 E0.01513
G1 X125.830 Y99.094 E0.01405
G1 X125.842 Y99.530 E0.01370
G1 X125.757 Y99.967 E0.01396
G1 X125.535 Y100.404 E0.01536
G1 X125.203 Y100.781 E0.01574
G1 X127.712 Y101.556 E0.08235
G1 X127.854 Y101.278 E0.00980
G1 X128.238 Y100.841 E0.01824
G1 X128.679 Y100.404 E0.01946
G1 X129.018 Y99.967 E0.01734
G1 X129.224 Y99.530 E0.01513
G1 X129.324 Y99.094 E0.01405
G1 X129.337 Y98.657 E0.01370
G1 X129.255 Y98.239 E0.01335
G1 X126.866 Y97.502 E0.07839
;WIPE_START
G1 F8640.000
G1 X129.255 Y98.239 E-0.57726
G1 X129.337 Y98.657 E-0.09832
G1 X129.326 Y99.022 E-0.08443
;WIPE_END
G1 E-0.04000 F2100.000
G1 Z0.600 F10800.000
G1 X133.442 Y103.326
G1 Z0.200
G1 E0.80000 F2100.000
G1 F1200.000
G1 X131.053 Y102.588 E0.07839
G1 X131.154 Y102.151 E0.01407
G1 X131.359 Y101.714 E0.01513
G1 X131.698 Y101.278 E0.01734
G1 X132.139 Y100.841 E0.01946
G1 X132.523 Y100.404 E0.01824
G1 X132.745 Y99.967 E0.01536
G1 X132.831 Y99.530 E0.01396
G1 X132.825 Y99.341 E0.00593
G1 X135.784 Y100.254 E0.09708
G1 X135.668 Y100.404 E0.00593
G1 X135.227 Y100.841 E0.01946
G1 X134.843 Y101.278 E0.01824
G1 X134.620 Y101.714 E0.01536
G1 X134.535 Y102.151 E0.01396
G1 X134.547 Y102.588 E0.01370
G1 X134.648 Y103.025 E0.01405
G1 X134.853 Y103.461 E0.01513
G1 X135.160 Y103.857 E0.01571
G1 X139.490 Y105.195 E0.14210
G1 X139.162 Y104.772 E0.01680
G1 X138.721 Y104.335 E0.01946
G1 X138.337 Y103.898 E0.01824
G1 X138.115 Y103.461 E0.01536
G1 X138.029 Y103.025 E0.01396
G1 X138.042 Y102.588 E0.01370
G1 X138.142 Y102.151 E0.01405
G1 X138.347 Y101.714 E0.01513
G1 X138.686 Y101.278 E0.01734
G1 X138.784 Y101.181 E0.00432
G1 X141.546 Y102.033 E0.09064
G1 X141.523 Y102.151 E0.00376
G1 X141.536 Y102.588 E0.01370
G1 X141.636 Y103.025 E0.01405
G1 X141.841 Y103.461 E0.01513
G1 X142.181 Y103.898 E0.01734
G1 X142.622 Y104.335 E0.01946
G1 X143.006 Y104.772 E0.01824
G1 X143.228 Y105.208 E0.01536
G1 X143.313 Y105.645 E0.01396
G1 X143.301 Y106.082 E0.01370
G1 X143.239 Y106.353 E0.00872
G1 X140.850 Y105.615 E0.07839
;WIPE_START
G1 F8640.000
G1 X143.239 Y106.353 E-0.57726
G1 X143.301 Y106.082 E-0.06420
G1 X143.313 Y105.645 E-0.10089
G1 X143.299 Y105.570 E-0.01765
;WIPE_END
G1 E-0.04000 F2100.000
G1 Z0.600 F10800.000
G1 X117.813 Y94.437
G1 Z0.200
G1 E0.80000 F2100.000
G1 F1200.000
G1 X117.813 Y92.998 E0.04514
G1 X118.826 Y92.685 E0.03324
G1 X118.854 Y92.542 E0.00456
G1 X118.841 Y92.105 E0.01370
G1 X118.741 Y91.668 E0.01405
G1 X118.536 Y91.232 E0.01513
G1 X118.197 Y90.795 E0.01734
G1 X117.639 Y90.225 E0.02500
G1 X117.639 Y89.252 E0.03052
G1 X120.563 Y88.349 E0.09596
G1 X120.570 Y88.611 E0.00821
G1 X120.671 Y89.048 E0.01405
G1 X120.876 Y89.485 E0.01513
G1 X121.215 Y89.921 E0.01734
G1 X121.656 Y90.358 E0.01946
G1 X122.040 Y90.795 E0.01824
G1 X122.262 Y91.232 E0.01536
G1 X122.335 Y91.602 E0.01182
G1 X125.129 Y90.739 E0.09168
G1 X124.744 Y90.358 E0.01698
G1 X124.360 Y89.921 E0.01824
G1 X124.138 Y89.485 E0.01536
G1 X124.052 Y89.048 E0.01396
G1 X124.065 Y88.611 E0.01370
G1 X124.165 Y88.174 E0.01405
G1 X124.370 Y87.737 E0.01513
G1 X124.710 Y87.301 E0.01734
G1 X125.049 Y86.965 E0.01498
G1 X129.156 Y85.697 E0.13478
G1 X129.018 Y85.990 E0.01017
G1 X128.679 Y86.427 E0.01734
G1 X128.238 Y86.864 E0.01946
G1 X127.854 Y87.301 E0.01824
G1 X127.632 Y87.737 E0.01536
G1 X127.546 Y88.174 E0.01396
G1 X127.559 Y88.611 E0.01370
G1 X127.659 Y89.048 E0.01405
G1 X127.865 Y89.485 E0.01513
G1 X128.121 Y89.815 E0.01313
G1 X131.045 Y88.913 E0.09592
G1 X131.053 Y88.611 E0.00948
G1 X131.154 Y88.174 E0.01405
G1 X131.359 Y87.737 E0.01513
G1 X131.698 Y87.301 E0.01734
G1 X132.139 Y86.864 E0.01946
G1 X132.523 Y86.427 E0.01824
G1 X132.745 Y85.990 E0.01536
G1 X132.831 Y85.554 E0.01396
G1 X132.818 Y85.117 E0.01370
G1 X132.718 Y84.680 E0.01405
G1 X132.684 Y84.608 E0.00250
G1 X130.295 Y85.345 E0.07839
;WIPE_START
G1 F8640.000
G1 X132.684 Y84.608 E-0.57726
G1 X132.718 Y84.680 E-0.01844
G1 X132.818 Y85.117 E-0.10348
G1 X132.826 Y85.380 E-0.06082
;WIPE_END
G1 E-0.04000 F2100.000
G1 Z0.600 F10800.000
G1 X136.994 Y87.076
G1 Z0.200
G1 E0.80000 F2100.000
G1 F1200.000
G1 X134.606 Y87.814 E0.07839
G1 X134.620 Y87.737 E0.00244
G1 X134.843 Y87.301 E0.01536
G1 X135.227 Y86.864 E0.01824
G1 X135.668 Y86.427 E0.01946
G1 X136.007 Y85.990 E0.01734
G1 X136.212 Y85.554 E0.01513
G1 X136.312 Y85.117 E0.01405
G1 X136.325 Y84.680 E0.01370
G1 X136.239 Y84.243 E0.01396
G1 X136.017 Y83.806 E0.01536
G1 X135.860 Y83.627 E0.00748
G1 X138.306 Y82.872 E0.08027
G1 X138.337 Y82.933 E0.00213
G1 X138.721 Y83.370 E0.01824
G1 X139.162 Y83.806 E0.01946
G1 X139.501 Y84.243 E0.01734
G1 X139.706 Y84.680 E0.01513
G1 X139.807 Y85.117 E0.01405
G1 X139.819 Y85.554 E0.01370
G1 X139.734 Y85.990 E0.01396
G1 X139.588 Y86.276 E0.01003
G1 X143.298 Y85.131 E0.12172
G1 X143.313 Y84.680 E0.01414
G1 X143.228 Y84.243 E0.01396
G1 X143.006 Y83.806 E0.01536
