; generated by PrusaSlicer 2.3.0+win64 on 2021-11-18 at 00:25:46 UTC

; 

; external perimeters extrusion width = 0.60mm
; perimeters extrusion width = 0.50mm
; infill extrusion width = 0.50mm
; solid infill extrusion width = 0.50mm
; top infill extrusion width = 0.45mm
; support material extrusion width = 0.38mm
; first layer extrusion width = 0.42mm

M73 P0 R62
M73 Q0 S63
M201 X1000 Y1000 Z200 E5000 ; sets maximum accelerations, mm/sec^2
M203 X200 Y200 Z12 E120 ; sets maximum feedrates, mm/sec
M204 P1250 R1250 T1250 ; sets acceleration (P, T) and retract acceleration (R), mm/sec^2
M205 X8.00 Y8.00 Z0.40 E4.50 ; sets the jerk limits, mm/sec
M205 S0 T0 ; sets the minimum extruding and travel feed rate, mm/sec
M107
;TYPE:Custom
M862.3 P "MK3SMMU2S" ; printer model check
M862.1 P0.4 ; nozzle diameter check
M115 U3.9.3 ; tell printer latest fw version
G90 ; use absolute coordinates
M83 ; extruder relative mode
M104 S215 ; set extruder temp
M140 S60 ; set bed temp
Tx
M190 S60 ; wait for bed temp
M109 S215 ; wait for extruder temp
G28 W ; home all without mesh bed level
G80 ; mesh bed leveling

;go outside print area
G1 Y-3.0 F1000.0
G1 Z0.4 F1000.0
; select extruder
Tc
; purge line
G1 X55.0 F2000.0
M73 Q0 S62
G1 Z0.3 F1000.0
G92 E0.0
G1 X240.0 E25.0 F2200.0
G1 Y-2.0 F1000.0
G1 X55.0 E25 F1400.0
G1 Z0.20 F1000.0
G1 X5.0 E4.0 F1000.0

M221 S95
G92 E0.0

; Don't change E values below. Excessive value can damage the printer.

M907 E538 ; set extruder motor current
G21 ; set units to millimeters
G90 ; use absolute coordinates
M83 ; use relative distances for extrusion
M900 K0.05 ; Filament gcode LA 1.5
M900 K30 ; Filament gcode LA 1.0
;LAYER_CHANGE
;Z:0.2
;HEIGHT:0.2
;BEFORE_LAYER_CHANGE
G92 E0.0
;0.2


G1 E-0.80000 F2100.000
G1 Z0.400 F10800.000
;AFTER_LAYER_CHANGE
;0.2
G1 X87.603 Y132.653
G1 Z0.200
G1 E0.80000 F2100.000
M204 S1000
;TYPE:Skirt
;WIDTH:0.42
G1 F1200.000
G1 X82.800 Y122.688 E0.34685
G1 X80.437 Y113.240 E0.30535
G1 X80.425 Y96.994 E0.50938
G1 X82.723 Y87.394 E0.30950
G1 X85.256 Y82.286 E0.17878
G1 X88.333 Y77.553 E0.17699
G1 X90.137 Y74.996 E0.09812
G1 X94.938 Y70.189 E0.21304
G1 X97.992 Y67.667 E0.12416
G1 X107.552 Y62.764 E0.33687
G1 X116.962 Y60.341 E0.30468
G1 X117.450 Y60.288 E0.01538
G1 X132.600 Y60.288 E0.47504
G1 X133.163 Y60.356 E0.01775
G1 X142.687 Y62.751 E0.30793
G1 X152.329 Y67.562 E0.33787
G1 X152.788 Y67.913 E0.01811
G1 X157.477 Y72.603 E0.20796
G1 X161.639 Y77.342 E0.19774
G1 X164.774 Y82.338 E0.18491
G1 X167.222 Y87.244 E0.17194
G1 X169.553 Y96.884 E0.31097
G1 X169.610 Y97.394 E0.01609
G1 X169.575 Y113.176 E0.49482
G1 X167.198 Y122.692 E0.30753
G1 X162.439 Y132.327 E0.33696
G1 X162.073 Y132.802 E0.01882
G1 X152.482 Y142.340 E0.42407
G1 X142.703 Y147.243 E0.34301
G1 X133.084 Y149.662 E0.31098
G1 X117.053 Y149.677 E0.50265
G1 X107.558 Y147.239 E0.30736
G1 X98.169 Y142.446 E0.33054
G1 X94.944 Y139.816 E0.13047
G1 X87.646 Y132.695 E0.31970
; printing object KF50FeedThrough.stl id:0 copy 0
;WIPE_START
G1 F8640.000
G1 X86.212 Y129.733 E-0.76000
;WIPE_END
G1 E-0.04000 F2100.000
G1 Z0.600 F10800.000
G1 X89.555 Y131.295
G1 Z0.200
G1 E0.80000 F2100.000
;TYPE:Support material
G1 F1200.000
G1 X89.555 Y83.506 E1.49840
G1 X88.800 Y83.506 E0.02365
G1 X88.800 Y126.494 E1.34787
M73 P1 R62
M73 Q1 S62
G1 X88.046 Y126.494 E0.02365
G1 X88.046 Y83.506 E1.34787
G1 X87.297 Y83.506 E0.02351
G1 X87.292 Y121.863 E1.20266
G1 X86.538 Y121.863 E0.02365
G1 X86.538 Y88.137 E1.05745
G1 X85.784 Y88.137 E0.02365
G1 X85.784 Y121.863 E1.05745
G1 X85.030 Y121.863 E0.02365
G1 X85.030 Y88.137 E1.05745
M73 P1 R61
G1 X84.981 Y88.137 E0.00153
G1 X84.981 Y97.400 E0.29042
G1 X84.275 Y97.400 E0.02212
G1 X84.275 Y112.601 E0.47661
G1 X83.521 Y112.601 E0.02365
G1 X83.521 Y97.400 E0.47661
G1 X82.767 Y97.400 E0.02365
G1 X82.767 Y112.770 E0.48193
;WIPE_START
G1 F8640.000
G1 X82.767 Y109.479 E-0.76000
;WIPE_END
G1 E-0.04000 F2100.000
G1 Z0.600 F10800.000
G1 X135.312 Y103.454
G1 Z0.200
G1 E0.80000 F2100.000
;TYPE:Support material interface
;WIDTH:0.38
G1 F1200.000
G1 X135.312 Y105.607 E0.06037
G1 X135.401 Y105.886 E0.00821
G1 X135.512 Y106.149 E0.00799
G1 X135.656 Y106.417 E0.00853
G1 X135.828 Y106.674 E0.00868
G1 X135.828 Y102.807 E0.10840
G1 X136.004 Y102.581 E0.00803
G1 X136.344 Y102.259 E0.01311
G1 X136.344 Y107.218 E0.13898
G1 X136.587 Y107.399 E0.00850
G1 X136.859 Y107.563 E0.00891
G1 X136.859 Y101.905 E0.15859
G1 X137.108 Y101.779 E0.00780
G1 X137.375 Y101.674 E0.00804
G1 X137.375 Y107.777 E0.17105
G1 X137.891 Y107.890 E0.01479
G1 X137.891 Y101.546 E0.17782
G1 X138.406 Y101.502 E0.01450
G1 X138.406 Y107.926 E0.18005
G1 X138.922 Y107.884 E0.01450
G1 X138.922 Y101.545 E0.17767
G1 X139.437 Y101.670 E0.01487
G1 X139.437 Y107.764 E0.17081
G1 X139.953 Y107.529 E0.01588
G1 X139.953 Y101.906 E0.15762
G1 X140.232 Y102.081 E0.00923
G1 X140.469 Y102.262 E0.00835
G1 X140.469 Y107.185 E0.13801
G1 X140.760 Y106.928 E0.01090
G1 X140.984 Y106.677 E0.00943
G1 X140.984 Y102.802 E0.10861
G1 X141.143 Y103.030 E0.00779
G1 X141.290 Y103.286 E0.00827
G1 X141.500 Y103.795 E0.01545
G1 X141.500 Y106.106 E0.06475
;WIPE_START
G1 F8640.000
G1 X141.500 Y103.795 E-0.53345
G1 X141.290 Y103.286 E-0.12726
G1 X141.143 Y103.030 E-0.06815
G1 X141.066 Y102.919 E-0.03115
;WIPE_END
G1 E-0.04000 F2100.000
G1 Z0.600 F10800.000
G1 X155.422 Y102.567
G1 Z0.200
G1 E0.80000 F2100.000
G1 F1200.000
G1 X155.422 Y91.106 E0.32123
G1 X155.103 Y91.106 E0.00893
G1 X155.103 Y86.475 E0.12981
G1 X154.906 Y86.475 E0.00553
G1 X154.906 Y100.738 E0.39975
G1 X154.734 Y100.738 E0.00481
G1 X154.734 Y97.539 E0.08964
G1 X154.390 Y96.283 E0.03650
G1 X154.390 Y86.475 E0.27491
G1 X153.875 Y86.475 E0.01445
G1 X153.875 Y94.693 E0.23033
G1 X153.534 Y93.791 E0.02703
G1 X153.359 Y93.791 E0.00490
G1 X153.359 Y86.475 E0.20504
G1 X152.843 Y86.475 E0.01445
G1 X152.843 Y93.791 E0.20504
G1 X152.419 Y93.791 E0.01190
G1 X152.419 Y91.281 E0.07034
G1 X152.328 Y91.107 E0.00550
G1 X152.328 Y81.844 E0.25963
G1 X151.812 Y81.844 E0.01445
G1 X151.812 Y90.136 E0.23241
M73 Q1 S61
G1 X151.297 Y89.238 E0.02901
G1 X151.297 Y81.844 E0.20726
G1 X150.781 Y81.844 E0.01445
G1 X150.781 Y89.159 E0.20504
G1 X150.265 Y89.159 E0.01445
G1 X150.265 Y79.528 E0.26994
G1 X149.750 Y79.528 E0.01445
G1 X149.750 Y86.914 E0.20700
G1 X149.234 Y86.224 E0.02415
G1 X149.234 Y79.528 E0.18766
G1 X148.719 Y79.528 E0.01445
G1 X148.719 Y85.579 E0.16960
G1 X148.203 Y84.970 E0.02238
G1 X148.203 Y79.528 E0.15251
G1 X148.156 Y79.528 E0.00131
G1 X148.156 Y77.213 E0.06490
G1 X147.687 Y77.213 E0.01314
G1 X147.687 Y84.384 E0.20100
G1 X147.172 Y83.833 E0.02116
G1 X147.172 Y77.213 E0.18555
G1 X146.656 Y77.213 E0.01445
G1 X146.656 Y83.308 E0.17085
G1 X146.140 Y82.799 E0.02030
G1 X146.140 Y77.213 E0.15659
G1 X145.625 Y77.213 E0.01445
G1 X145.625 Y82.325 E0.14330
G1 X145.502 Y82.213 E0.00468
G1 X145.472 Y82.213 E0.00083
G1 X145.472 Y82.185 E0.00076
G1 X145.109 Y81.864 E0.01358
G1 X145.109 Y77.213 E0.13037
G1 X144.594 Y77.213 E0.01445
G1 X144.594 Y81.427 E0.11812
G1 X144.078 Y81.009 E0.01861
G1 X144.078 Y77.213 E0.10640
G1 X143.562 Y77.213 E0.01445
G1 X143.562 Y80.605 E0.09508
G1 X143.047 Y80.225 E0.01795
G1 X143.047 Y74.897 E0.14934
G1 X142.531 Y74.897 E0.01445
G1 X142.531 Y79.897 E0.14014
G1 X142.015 Y79.897 E0.01445
G1 X142.015 Y74.897 E0.14014
G1 X141.500 Y74.897 E0.01445
G1 X141.500 Y79.897 E0.14014
G1 X140.984 Y79.897 E0.01445
G1 X140.984 Y74.897 E0.14014
G1 X140.469 Y74.897 E0.01445
G1 X140.469 Y78.535 E0.10198
G1 X139.953 Y78.246 E0.01657
G1 X139.953 Y74.897 E0.09388
G1 X139.437 Y74.897 E0.01445
G1 X139.437 Y77.960 E0.08585
G1 X138.922 Y77.695 E0.01624
G1 X138.922 Y74.897 E0.07843
G1 X138.894 Y74.897 E0.00078
G1 X138.894 Y72.581 E0.06490
G1 X138.406 Y72.581 E0.01367
G1 X138.406 Y77.581 E0.14014
G1 X137.891 Y77.581 E0.01445
G1 X137.891 Y72.581 E0.14014
G1 X137.375 Y72.581 E0.01445
G1 X137.375 Y77.581 E0.14014
G1 X136.859 Y77.581 E0.01445
G1 X136.859 Y72.581 E0.14014
G1 X136.344 Y72.581 E0.01445
G1 X136.344 Y77.581 E0.14014
G1 X136.209 Y77.581 E0.00376
G1 X136.209 Y76.470 E0.03115
G1 X135.828 Y76.328 E0.01141
G1 X135.828 Y72.581 E0.10501
G1 X135.312 Y72.581 E0.01445
G1 X135.312 Y76.136 E0.09963
G1 X134.797 Y75.960 E0.01528
G1 X134.797 Y72.581 E0.09468
G1 X134.281 Y72.581 E0.01445
G1 X134.281 Y75.790 E0.08993
G1 X133.766 Y75.632 E0.01512
G1 X133.766 Y72.581 E0.08549
G1 X133.250 Y72.581 E0.01445
G1 X133.250 Y75.484 E0.08135
G1 X132.734 Y75.342 E0.01499
G1 X132.734 Y72.581 E0.07739
G1 X132.219 Y72.581 E0.01445
G1 X132.219 Y75.266 E0.07524
G1 X131.703 Y75.266 E0.01445
G1 X131.703 Y70.266 E0.14014
G1 X131.187 Y70.266 E0.01445
G1 X131.187 Y75.266 E0.14014
G1 X130.672 Y75.266 E0.01445
G1 X130.672 Y70.266 E0.14014
G1 X130.156 Y70.266 E0.01445
G1 X130.156 Y75.266 E0.14014
G1 X129.641 Y75.266 E0.01445
G1 X129.641 Y70.266 E0.14014
G1 X129.125 Y70.266 E0.01445
G1 X129.125 Y74.631 E0.12236
G1 X128.609 Y74.566 E0.01457
G1 X128.609 Y70.266 E0.12054
G1 X128.094 Y70.266 E0.01445
G1 X128.094 Y74.508 E0.11889
G1 X127.578 Y74.463 E0.01451
G1 X127.578 Y70.266 E0.11764
M73 Q2 S61
G1 X127.063 Y70.266 E0.01445
G1 X127.063 Y74.420 E0.11644
G1 X126.547 Y74.394 E0.01447
M73 P2 R61
G1 X126.547 Y70.266 E0.11570
G1 X126.031 Y70.266 E0.01445
G1 X126.031 Y74.370 E0.11502
G1 X125.516 Y74.359 E0.01445
G1 X125.516 Y70.266 E0.11473
G1 X125.000 Y70.266 E0.01445
G1 X125.000 Y74.354 E0.11460
G1 X124.484 Y74.358 E0.01445
G1 X124.484 Y70.266 E0.11469
G1 X123.969 Y70.266 E0.01445
G1 X123.969 Y74.373 E0.11511
G1 X123.453 Y74.391 E0.01446
G1 X123.453 Y70.266 E0.11563
G1 X122.938 Y70.266 E0.01445
G1 X122.938 Y74.425 E0.11658
G1 X122.422 Y74.460 E0.01449
G1 X122.422 Y70.266 E0.11756
G1 X121.906 Y70.266 E0.01445
G1 X121.906 Y74.512 E0.11901
G1 X121.391 Y74.567 E0.01453
G1 X121.391 Y70.266 E0.12056
G1 X120.875 Y70.266 E0.01445
G1 X120.875 Y74.633 E0.12242
G1 X120.737 Y74.654 E0.00390
G1 X120.737 Y75.266 E0.01716
G1 X120.359 Y75.266 E0.01059
G1 X120.359 Y70.266 E0.14014
G1 X119.844 Y70.266 E0.01445
G1 X119.844 Y75.266 E0.14014
G1 X119.328 Y75.266 E0.01445
G1 X119.328 Y70.266 E0.14014
G1 X118.813 Y70.266 E0.01445
G1 X118.813 Y75.266 E0.14014
G1 X118.297 Y75.266 E0.01445
G1 X118.297 Y70.266 E0.14014
G1 X118.053 Y70.266 E0.00683
G1 X118.053 Y72.581 E0.06490
G1 X117.781 Y72.581 E0.00762
G1 X117.781 Y75.266 E0.07524
G1 X117.580 Y75.266 E0.00564
G1 X117.266 Y75.349 E0.00912
G1 X117.266 Y72.581 E0.07758
G1 X116.750 Y72.581 E0.01445
G1 X116.750 Y75.487 E0.08144
G1 X116.235 Y75.637 E0.01505
G1 X116.235 Y72.581 E0.08564
G1 X115.719 Y72.581 E0.01445
G1 X115.719 Y75.796 E0.09009
G1 X115.203 Y75.963 E0.01520
G1 X115.203 Y72.581 E0.09479
G1 X114.688 Y72.581 E0.01445
G1 X114.688 Y76.144 E0.09986
G1 X114.172 Y76.331 E0.01537
G1 X114.172 Y72.581 E0.10510
G1 X113.656 Y72.581 E0.01445
G1 X113.656 Y77.581 E0.14014
G1 X113.141 Y77.581 E0.01445
G1 X113.141 Y72.581 E0.14014
G1 X112.625 Y72.581 E0.01445
G1 X112.625 Y77.581 E0.14014
G1 X112.110 Y77.581 E0.01445
G1 X112.110 Y72.581 E0.14014
G1 X111.594 Y72.581 E0.01445
G1 X111.594 Y77.581 E0.14014
G1 X111.317 Y77.581 E0.00776
G1 X111.078 Y77.699 E0.00746
G1 X111.078 Y74.897 E0.07854
G1 X110.563 Y74.897 E0.01445
G1 X110.563 Y77.973 E0.08622
G1 X110.047 Y78.250 E0.01641
G1 X110.047 Y74.897 E0.09398
G1 X109.531 Y74.897 E0.01445
G1 X109.531 Y78.550 E0.10240
G1 X109.159 Y78.769 E0.01209
G1 X109.159 Y79.897 E0.03163
G1 X109.016 Y79.897 E0.00402
G1 X109.016 Y74.897 E0.14014
G1 X108.500 Y74.897 E0.01445
G1 X108.500 Y79.897 E0.14014
G1 X107.985 Y79.897 E0.01445
G1 X107.985 Y74.897 E0.14014
G1 X107.469 Y74.897 E0.01445
G1 X107.469 Y79.897 E0.14014
G1 X107.429 Y79.897 E0.00111
G1 X106.953 Y80.233 E0.01633
G1 X106.953 Y74.897 E0.14956
G1 X106.475 Y74.897 E0.01341
G1 X106.475 Y77.213 E0.06490
G1 X106.438 Y77.213 E0.00105
G1 X106.438 Y80.621 E0.09552
G1 X105.922 Y81.020 E0.01827
G1 X105.922 Y77.213 E0.10671
G1 X105.407 Y77.213 E0.01445
G1 X105.407 Y81.440 E0.11850
G1 X104.891 Y81.880 E0.01899
G1 X104.891 Y77.213 E0.13082
G1 X104.375 Y77.213 E0.01445
G1 X104.375 Y82.336 E0.14360
G1 X103.860 Y82.821 E0.01984
G1 X103.860 Y77.213 E0.15719
G1 X103.344 Y77.213 E0.01445
G1 X103.344 Y83.320 E0.17117
G1 X102.828 Y83.850 E0.02074
G1 X102.828 Y77.213 E0.18604
G1 X102.313 Y77.213 E0.01445
G1 X102.313 Y84.405 E0.20160
G1 X101.797 Y84.983 E0.02170
G1 X101.797 Y79.528 E0.15289
G1 X101.282 Y79.528 E0.01445
G1 X101.282 Y85.600 E0.17019
G1 X100.766 Y86.250 E0.02324
G1 X100.766 Y79.528 E0.18840
G1 X100.250 Y79.528 E0.01445
G1 X100.250 Y86.931 E0.20750
G1 X99.897 Y87.430 E0.01713
G1 X99.897 Y89.159 E0.04847
G1 X99.735 Y89.159 E0.00455
G1 X99.735 Y79.528 E0.26994
G1 X99.528 Y79.528 E0.00579
G1 X99.528 Y81.844 E0.06490
G1 X99.219 Y81.844 E0.00866
G1 X99.219 Y89.159 E0.20504
G1 X98.772 Y89.159 E0.01252
G1 X98.703 Y89.275 E0.00376
G1 X98.703 Y81.844 E0.20827
G1 X98.188 Y81.844 E0.01445
G1 X98.188 Y90.170 E0.23337
G1 X97.672 Y91.141 E0.03082
G1 X97.672 Y81.844 E0.26059
G1 X97.213 Y81.844 E0.01288
G1 X97.213 Y86.475 E0.12981
G1 X97.157 Y86.475 E0.00157
G1 X97.157 Y93.791 E0.20504
G1 X96.641 Y93.791 E0.01445
G1 X96.641 Y86.475 E0.20504
G1 X96.125 Y86.475 E0.01445
G1 X96.125 Y94.746 E0.23183
G1 X95.610 Y96.322 E0.04647
G1 X95.610 Y86.475 E0.27600
G1 X95.094 Y86.475 E0.01445
G1 X95.094 Y100.880 E0.40373
;WIPE_START
G1 F8640.000
G1 X95.094 Y97.588 E-0.76000
;WIPE_END
G1 E-0.04000 F2100.000
G1 Z0.600 F10800.000
G1 X90.454 Y97.911
G1 Z0.200
G1 E0.80000 F2100.000
G1 F1200.000
G1 X90.454 Y111.947 E0.39340
G1 X90.969 Y111.947 E0.01445
G1 X90.969 Y98.053 E0.38942
G1 X91.485 Y98.053 E0.01445
G1 X91.485 Y111.947 E0.38942
G1 X92.000 Y111.947 E0.01445
G1 X92.000 Y98.053 E0.38942
G1 X92.516 Y98.053 E0.01445
G1 X92.516 Y111.947 E0.38942
G1 X92.581 Y111.947 E0.00183
G1 X92.581 Y118.894 E0.19471
G1 X93.032 Y118.894 E0.01262
G1 X93.032 Y91.106 E0.77884
G1 X93.547 Y91.106 E0.01445
G1 X93.547 Y118.894 E0.77884
G1 X94.063 Y118.894 E0.01445
G1 X94.063 Y91.106 E0.77884
G1 X94.579 Y91.106 E0.01445
G1 X94.579 Y101.333 E0.28664
G1 X94.489 Y102.136 E0.02264
G1 X94.402 Y103.285 E0.03230
G1 X94.359 Y104.423 E0.03193
G1 X94.359 Y105.569 E0.03210
G1 X94.418 Y106.954 E0.03887
G1 X94.488 Y107.864 E0.02557
G1 X94.579 Y108.677 E0.02293
G1 X94.579 Y118.894 E0.28636
G1 X94.897 Y118.894 E0.00893
G1 X94.897 Y123.525 E0.12981
G1 X95.094 Y123.525 E0.00553
G1 X95.094 Y109.263 E0.39975
G1 X95.266 Y109.263 E0.00481
G1 X95.266 Y112.416 E0.08839
G1 X95.610 Y113.688 E0.03693
G1 X95.610 Y123.525 E0.27571
G1 X96.125 Y123.525 E0.01445
G1 X96.125 Y115.263 E0.23157
G1 X96.478 Y116.210 E0.02830
G1 X96.641 Y116.210 E0.00458
G1 X96.641 Y123.525 E0.20504
M73 P2 R60
G1 X97.157 Y123.525 E0.01445
G1 X97.157 Y116.210 E0.20504
G1 X97.581 Y116.210 E0.01190
G1 X97.581 Y118.686 E0.06941
G1 X97.672 Y118.869 E0.00572
G1 X97.672 Y128.156 E0.26032
G1 X98.188 Y128.156 E0.01445
G1 X98.188 Y119.840 E0.23310
G1 X98.703 Y120.735 E0.02896
G1 X98.703 Y128.156 E0.20800
G1 X99.219 Y128.156 E0.01445
G1 X99.219 Y120.841 E0.20504
G1 X99.735 Y120.841 E0.01445
G1 X99.735 Y130.472 E0.26994
G1 X100.250 Y130.472 E0.01445
G1 X100.250 Y123.079 E0.20722
G1 X100.766 Y123.760 E0.02395
G1 X100.766 Y130.472 E0.18812
G1 X101.282 Y130.472 E0.01445
G1 X101.282 Y124.409 E0.16993
G1 X101.797 Y125.027 E0.02255
G1 X101.797 Y130.472 E0.15261
G1 X101.844 Y130.472 E0.00131
G1 X101.844 Y132.788 E0.06490
G1 X102.313 Y132.788 E0.01315
G1 X102.313 Y125.605 E0.20132
M73 Q3 S61
G1 X102.828 Y126.159 E0.02123
M73 P3 R60
G1 X102.828 Y132.788 E0.18578
G1 X103.344 Y132.788 E0.01445
G1 X103.344 Y126.690 E0.17090
G1 X103.860 Y127.189 E0.02010
G1 X103.860 Y132.788 E0.15692
G1 X104.375 Y132.788 E0.01445
G1 X104.375 Y127.674 E0.14333
G1 X104.503 Y127.788 E0.00480
G1 X104.528 Y127.788 E0.00069
G1 X104.528 Y127.809 E0.00061
G1 X104.891 Y128.130 E0.01356
G1 X104.891 Y132.788 E0.13055
G1 X105.407 Y132.788 E0.01445
G1 X105.407 Y128.569 E0.11823
G1 X105.922 Y128.990 E0.01866
G1 X105.922 Y132.788 E0.10643
G1 X106.438 Y132.788 E0.01445
G1 X106.438 Y129.389 E0.09525
G1 X106.953 Y129.777 E0.01808
G1 X106.953 Y135.103 E0.14929
G1 X107.469 Y135.103 E0.01445
G1 X107.469 Y130.103 E0.14014
G1 X107.985 Y130.103 E0.01445
