; generated by PrusaSlicer 2.2.0+win64 on 2021-11-17 at 17:37:07 UTC

; 

; external perimeters extrusion width = 0.60mm
; perimeters extrusion width = 0.50mm
; infill extrusion width = 0.50mm
; solid infill extrusion width = 0.50mm
; top infill extrusion width = 0.45mm
; support material extrusion width = 0.38mm
; first layer extrusion width = 0.42mm

M73 P0 R62
M73 Q0 S62
M201 X1000 Y1000 Z200 E5000 ; sets maximum accelerations, mm/sec^2
M203 X200 Y200 Z12 E120 ; sets maximum feedrates, mm/sec
M204 P1250 R1250 T1250 ; sets acceleration (P, T) and retract acceleration (R), mm/sec^2
M205 X8.00 Y8.00 Z0.40 E4.50 ; sets the jerk limits, mm/sec
M205 S0 T0 ; sets the minimum extruding and travel feed rate, mm/sec
M107
M862.3 P "MK3S" ; printer model check
M862.1 P0.4 ; nozzle diameter check
M115 U3.10.0 ; tell printer latest fw version
G90 ; use absolute coordinates
M83 ; extruder relative mode
M104 S215 ; set extruder temp
M140 S60 ; set bed temp
M190 S60 ; wait for bed temp
M109 S215 ; wait for extruder temp
G28 W ; home all without mesh bed level
G80 ; mesh bed leveling
G1 Y-3.0 F1000.0 ; go outside print area
G92 E0.0
G1 X60.0 E9.0 F1000.0 ; intro line
M73 Q0 S62
M73 P0 R62
G1 X100.0 E12.5 F1000.0 ; intro line
G92 E0.0
M221 S95

; Don't change E values below. Excessive value can damage the printer.

M907 E538 ; set extruder motor current
G21 ; set units to millimeters
G90 ; use absolute coordinates
M83 ; use relative distances for extrusion
M900 K0.05 ; Filament gcode LA 1.5
M900 K30 ; Filament gcode LA 1.0
;BEFORE_LAYER_CHANGE
G92 E0.0
;0.2


G1 E-0.80000 F2100.00000
G1 Z0.400 F10800.000
;AFTER_LAYER_CHANGE
;0.2
G1 X87.603 Y132.653
G1 Z0.200
G1 E0.80000 F2100.00000
M204 S1000
G1 F1200.000
G1 X82.800 Y122.688 E0.34685
G1 X80.437 Y113.240 E0.30535
G1 X80.425 Y96.994 E0.50938
G1 X82.723 Y87.394 E0.30950
G1 X85.256 Y82.286 E0.17878
G1 X88.333 Y77.553 E0.17699
G1 X90.137 Y74.996 E0.09812
G1 X94.938 Y70.189 E0.21304
G1 X97.992 Y67.667 E0.12416
G1 X107.551 Y62.764 E0.33687
G1 X116.962 Y60.341 E0.30468
G1 X117.450 Y60.288 E0.01538
G1 X132.600 Y60.288 E0.47504
G1 X133.163 Y60.356 E0.01775
G1 X142.687 Y62.751 E0.30793
G1 X152.329 Y67.563 E0.33787
G1 X152.788 Y67.913 E0.01811
G1 X157.477 Y72.604 E0.20796
G1 X161.639 Y77.342 E0.19774
G1 X164.774 Y82.338 E0.18491
G1 X167.222 Y87.244 E0.17194
G1 X169.553 Y96.884 E0.31097
G1 X169.610 Y97.394 E0.01609
G1 X169.575 Y113.176 E0.49482
G1 X167.198 Y122.692 E0.30753
G1 X162.439 Y132.327 E0.33696
G1 X162.073 Y132.803 E0.01882
G1 X152.482 Y142.340 E0.42407
G1 X142.703 Y147.243 E0.34301
G1 X133.084 Y149.662 E0.31098
G1 X117.053 Y149.677 E0.50265
G1 X107.558 Y147.239 E0.30736
G1 X98.169 Y142.446 E0.33054
G1 X94.944 Y139.816 E0.13047
G1 X87.646 Y132.695 E0.31970
; printing object KF50FeedThrough.stl id:0 copy 0
G1 F8640.000
G1 X86.212 Y129.733 E-0.76000
G1 E-0.04000 F2100.00000
G1 Z0.600 F10800.000
G1 X89.555 Y131.295
G1 Z0.200
G1 E0.80000 F2100.00000
G1 F1200.000
G1 X89.555 Y83.506 E1.49840
G1 X88.800 Y83.506 E0.02365
G1 X88.800 Y126.494 E1.34787
G1 X88.046 Y126.494 E0.02365
G1 X88.046 Y83.506 E1.34787
G1 X87.297 Y83.506 E0.02351
G1 X87.292 Y121.863 E1.20266
G1 X86.538 Y121.863 E0.02365
G1 X86.538 Y88.137 E1.05745
G1 X85.784 Y88.137 E0.02365
G1 X85.784 Y121.863 E1.05745
G1 X85.030 Y121.863 E0.02365
G1 X85.030 Y88.137 E1.05745
G1 X84.981 Y88.137 E0.00153
G1 X84.981 Y97.400 E0.29042
G1 X84.275 Y97.400 E0.02212
G1 X84.275 Y112.601 E0.47661
G1 X83.521 Y112.601 E0.02365
G1 X83.521 Y97.400 E0.47661
G1 X82.767 Y97.400 E0.02365
G1 X82.767 Y112.770 E0.48193
G1 F8640.000
G1 X82.767 Y109.479 E-0.76000
G1 E-0.04000 F2100.00000
G1 Z0.600 F10800.000
G1 X121.906 Y93.424
G1 Z0.200
G1 E0.80000 F2100.00000
G1 F1200.000
G1 X121.906 Y90.080 E0.09372
G1 X122.142 Y89.711 E0.01230
G1 X122.422 Y89.378 E0.01218
G1 X122.422 Y93.846 E0.12523
G1 X122.731 Y94.133 E0.01183
G1 X122.938 Y94.277 E0.00704
G1 X122.938 Y88.939 E0.14961
G1 X123.221 Y88.764 E0.00932
G1 X123.453 Y88.649 E0.00728
G1 X123.453 Y94.548 E0.16534
G1 X123.969 Y94.718 E0.01522
G1 X123.969 Y88.469 E0.17517
G1 X124.484 Y88.380 E0.01466
G1 X124.484 Y94.802 E0.17999
G1 X125.000 Y94.804 E0.01445
G1 X125.000 Y88.378 E0.18013
G1 X125.516 Y88.462 E0.01464
G1 X125.516 Y94.725 E0.17553
G1 X126.031 Y94.555 E0.01521
G1 X126.031 Y88.642 E0.16575
G1 X126.310 Y88.786 E0.00880
G1 X126.547 Y88.939 E0.00791
G1 X126.547 Y94.278 E0.14964
G1 X126.832 Y94.066 E0.00997
G1 X127.062 Y93.851 E0.00882
G1 X127.062 Y89.403 E0.12468
G1 X127.337 Y89.743 E0.01224
G1 X127.578 Y90.145 E0.01313
G1 X127.578 Y93.426 E0.09198
G1 F8640.000
G1 X127.578 Y90.145 E-0.75774
G1 X127.573 Y90.136 E-0.00226
G1 E-0.04000 F2100.00000
G1 Z0.600 F10800.000
G1 X155.422 Y102.970
G1 Z0.200
G1 E0.80000 F2100.00000
G1 F1200.000
G1 X155.422 Y91.106 E0.33251
G1 X155.103 Y91.106 E0.00893
G1 X155.103 Y86.475 E0.12981
G1 X154.906 Y86.475 E0.00553
G1 X154.906 Y100.738 E0.39975
G1 X154.734 Y100.738 E0.00481
G1 X154.734 Y97.686 E0.08552
G1 X154.390 Y96.411 E0.03701
G1 X154.390 Y86.475 E0.27850
G1 X153.875 Y86.475 E0.01445
G1 X153.875 Y94.806 E0.23351
G1 X153.496 Y93.791 E0.03038
G1 X153.359 Y93.791 E0.00385
G1 X153.359 Y86.475 E0.20504
G1 X152.843 Y86.475 E0.01445
G1 X152.843 Y93.791 E0.20504
G1 X152.419 Y93.791 E0.01190
G1 X152.419 Y91.379 E0.06759
G1 X152.328 Y91.202 E0.00559
G1 X152.328 Y81.844 E0.26228
G1 X151.812 Y81.844 E0.01445
G1 X151.812 Y90.227 E0.23496
G1 X151.297 Y89.327 E0.02908
G1 X151.297 Y81.844 E0.20973
G1 X150.781 Y81.844 E0.01445
G1 X150.781 Y89.160 E0.20504
G1 X150.265 Y89.160 E0.01445
G1 X150.265 Y79.528 E0.26994
G1 X149.750 Y79.528 E0.01445
G1 X149.750 Y86.990 E0.20914
G1 X149.234 Y86.302 E0.02410
G1 X149.234 Y79.528 E0.18985
G1 X148.718 Y79.528 E0.01445
G1 X148.718 Y85.649 E0.17155
G1 X148.203 Y85.039 E0.02238
G1 X148.203 Y79.528 E0.15446
G1 X148.156 Y79.528 E0.00131
G1 X148.156 Y77.213 E0.06490
G1 X147.687 Y77.213 E0.01314
G1 X147.687 Y84.457 E0.20304
G1 X147.172 Y83.897 E0.02133
G1 X147.172 Y77.213 E0.18734
G1 X146.656 Y77.213 E0.01445
G1 X146.656 Y83.375 E0.17272
G1 X146.140 Y82.869 E0.02025
G1 X146.140 Y77.213 E0.15854
G1 X145.625 Y77.213 E0.01445
G1 X145.625 Y82.388 E0.14505
G1 X145.109 Y81.931 E0.01931
G1 X145.109 Y77.213 E0.13225
G1 X144.594 Y77.213 E0.01445
G1 X144.594 Y81.488 E0.11982
G1 X144.078 Y81.073 E0.01855
G1 X144.078 Y77.213 E0.10819
G1 X143.562 Y77.213 E0.01445
G1 X143.562 Y80.666 E0.09680
G1 X143.047 Y80.286 E0.01796
G1 X143.047 Y74.897 E0.15105
G1 X142.531 Y74.897 E0.01445
G1 X142.531 Y79.916 E0.14067
G1 X142.503 Y79.897 E0.00095
G1 X142.015 Y79.897 E0.01367
G1 X142.015 Y74.897 E0.14014
G1 X141.500 Y74.897 E0.01445
G1 X141.500 Y79.897 E0.14014
G1 X140.984 Y79.897 E0.01445
G1 X140.984 Y74.897 E0.14014
G1 X140.469 Y74.897 E0.01445
G1 X140.469 Y78.598 E0.10373
G1 X139.953 Y78.303 E0.01665
G1 X139.953 Y74.897 E0.09546
G1 X139.437 Y74.897 E0.01445
G1 X139.437 Y78.021 E0.08754
G1 X138.922 Y77.751 E0.01630
G1 X138.922 Y74.897 E0.08000
G1 X138.894 Y74.897 E0.00078
G1 X138.894 Y72.582 E0.06490
G1 X138.406 Y72.582 E0.01367
G1 X138.406 Y77.581 E0.14014
G1 X137.890 Y77.581 E0.01445
G1 X137.890 Y72.582 E0.14014
G1 X137.375 Y72.582 E0.01445
G1 X137.375 Y77.581 E0.14014
G1 X136.859 Y77.581 E0.01445
G1 X136.859 Y72.582 E0.14014
G1 X136.344 Y72.582 E0.01445
G1 X136.344 Y77.581 E0.14014
G1 X136.209 Y77.581 E0.00376
G1 X136.209 Y76.529 E0.02949
G1 X135.828 Y76.383 E0.01145
G1 X135.828 Y72.582 E0.10655
G1 X135.312 Y72.582 E0.01445
G1 X135.312 Y76.190 E0.10114
G1 X134.797 Y76.015 E0.01526
G1 X134.797 Y72.582 E0.09623
G1 X134.281 Y72.582 E0.01445
G1 X134.281 Y75.842 E0.09137
G1 X133.766 Y75.687 E0.01508
G1 X133.766 Y72.582 E0.08705
G1 X133.250 Y72.582 E0.01445
G1 X133.250 Y75.535 E0.08277
G1 X132.734 Y75.399 E0.01495
G1 X132.734 Y72.582 E0.07896
G1 X132.219 Y72.582 E0.01445
G1 X132.219 Y75.267 E0.07526
G1 X131.703 Y75.266 E0.01445
G1 X131.703 Y70.266 E0.14014
G1 X131.187 Y70.266 E0.01445
G1 X131.187 Y75.266 E0.14014
G1 X130.672 Y75.266 E0.01445
G1 X130.672 Y70.266 E0.14014
G1 X130.156 Y70.266 E0.01445
G1 X130.156 Y75.266 E0.14014
G1 X129.641 Y75.266 E0.01445
G1 X129.641 Y70.266 E0.14014
G1 X129.125 Y70.266 E0.01445
G1 X129.125 Y74.685 E0.12385
G1 X128.609 Y74.616 E0.01458
G1 X128.609 Y70.266 E0.12192
G1 X128.094 Y70.266 E0.01445
G1 X128.094 Y74.562 E0.12041
G1 X127.578 Y74.512 E0.01452
G1 X127.578 Y70.266 E0.11902
G1 X127.062 Y70.266 E0.01445
G1 X127.062 Y74.474 E0.11795
G1 X126.547 Y74.444 E0.01448
G1 X126.547 Y70.266 E0.11711
G1 X126.031 Y70.266 E0.01445
G1 X126.031 Y74.421 E0.11645
M73 Q1 S61
G1 X125.516 Y74.411 E0.01445
G1 X125.516 Y70.266 E0.11617
G1 X125.000 Y70.266 E0.01445
G1 X125.000 Y74.401 E0.11591
G1 X124.484 Y74.411 E0.01445
G1 X124.484 Y70.266 E0.11617
M73 P1 R61
G1 X123.969 Y70.266 E0.01445
G1 X123.969 Y74.421 E0.11645
G1 X123.453 Y74.444 E0.01447
G1 X123.453 Y70.266 E0.11711
G1 X122.938 Y70.266 E0.01445
G1 X122.938 Y74.474 E0.11795
G1 X122.422 Y74.512 E0.01449
G1 X122.422 Y70.266 E0.11902
G1 X121.906 Y70.266 E0.01445
G1 X121.906 Y74.562 E0.12041
G1 X121.391 Y74.616 E0.01453
G1 X121.391 Y70.266 E0.12192
G1 X120.875 Y70.266 E0.01445
G1 X120.875 Y74.685 E0.12385
G1 X120.737 Y74.703 E0.00389
G1 X120.737 Y75.266 E0.01577
G1 X120.359 Y75.266 E0.01059
G1 X120.359 Y70.266 E0.14014
G1 X119.844 Y70.266 E0.01445
G1 X119.844 Y75.266 E0.14014
G1 X119.328 Y75.266 E0.01445
G1 X119.328 Y70.266 E0.14014
G1 X118.813 Y70.266 E0.01445
G1 X118.813 Y75.266 E0.14014
G1 X118.297 Y75.266 E0.01445
G1 X118.297 Y70.266 E0.14014
G1 X118.053 Y70.266 E0.00683
G1 X118.053 Y72.582 E0.06490
G1 X117.781 Y72.582 E0.00762
G1 X117.781 Y75.267 E0.07526
G1 X117.266 Y75.399 E0.01492
G1 X117.266 Y72.582 E0.07896
G1 X116.750 Y72.582 E0.01445
G1 X116.750 Y75.535 E0.08277
G1 X116.234 Y75.687 E0.01507
G1 X116.234 Y72.582 E0.08705
G1 X115.719 Y72.582 E0.01445
G1 X115.719 Y75.842 E0.09137
G1 X115.203 Y76.015 E0.01525
G1 X115.203 Y72.582 E0.09623
G1 X114.688 Y72.582 E0.01445
G1 X114.688 Y76.190 E0.10114
G1 X114.172 Y76.383 E0.01543
G1 X114.172 Y72.582 E0.10655
G1 X113.656 Y72.582 E0.01445
G1 X113.656 Y77.581 E0.14014
G1 X113.141 Y77.581 E0.01445
G1 X113.141 Y72.582 E0.14014
G1 X112.625 Y72.582 E0.01445
G1 X112.625 Y77.581 E0.14014
G1 X112.110 Y77.581 E0.01445
G1 X112.110 Y72.582 E0.14014
G1 X111.594 Y72.582 E0.01445
G1 X111.594 Y77.581 E0.14014
G1 X111.411 Y77.581 E0.00512
G1 X111.078 Y77.751 E0.01048
G1 X111.078 Y74.897 E0.08000
G1 X110.563 Y74.897 E0.01445
G1 X110.563 Y78.021 E0.08754
G1 X110.047 Y78.303 E0.01648
G1 X110.047 Y74.897 E0.09546
G1 X109.531 Y74.897 E0.01445
G1 X109.531 Y78.598 E0.10373
G1 X109.159 Y78.817 E0.01210
G1 X109.159 Y79.897 E0.03027
G1 X109.016 Y79.897 E0.00402
G1 X109.016 Y74.897 E0.14014
G1 X108.500 Y74.897 E0.01445
G1 X108.500 Y79.897 E0.14014
G1 X107.985 Y79.897 E0.01445
G1 X107.985 Y74.897 E0.14014
G1 X107.469 Y74.897 E0.01445
G1 X107.469 Y79.916 E0.14067
G1 X106.953 Y80.286 E0.01779
G1 X106.953 Y74.897 E0.15105
G1 X106.475 Y74.897 E0.01341
G1 X106.475 Y77.213 E0.06490
G1 X106.438 Y77.213 E0.00105
G1 X106.438 Y80.666 E0.09680
G1 X105.922 Y81.073 E0.01840
G1 X105.922 Y77.213 E0.10818
G1 X105.406 Y77.213 E0.01445
G1 X105.406 Y81.488 E0.11982
G1 X104.891 Y81.931 E0.01906
G1 X104.891 Y77.213 E0.13225
G1 X104.375 Y77.213 E0.01445
G1 X104.375 Y82.388 E0.14505
G1 X103.860 Y82.869 E0.01977
G1 X103.860 Y77.213 E0.15854
G1 X103.344 Y77.213 E0.01445
G1 X103.344 Y83.375 E0.17272
G1 X102.828 Y83.897 E0.02056
G1 X102.828 Y77.213 E0.18734
G1 X102.313 Y77.213 E0.01445
G1 X102.313 Y84.457 E0.20304
G1 X101.797 Y85.039 E0.02180
G1 X101.797 Y79.528 E0.15446
G1 X101.282 Y79.528 E0.01445
G1 X101.282 Y85.649 E0.17155
G1 X100.766 Y86.302 E0.02331
G1 X100.766 Y79.528 E0.18985
G1 X100.250 Y79.528 E0.01445
G1 X100.250 Y86.990 E0.20914
G1 X99.897 Y87.480 E0.01692
G1 X99.897 Y89.160 E0.04709
G1 X99.735 Y89.160 E0.00455
G1 X99.735 Y79.528 E0.26994
G1 X99.528 Y79.528 E0.00579
G1 X99.528 Y81.844 E0.06490
G1 X99.219 Y81.844 E0.00866
G1 X99.219 Y89.160 E0.20504
G1 X98.806 Y89.160 E0.01158
G1 X98.703 Y89.327 E0.00550
G1 X98.703 Y81.844 E0.20973
G1 X98.188 Y81.844 E0.01445
G1 X98.188 Y90.227 E0.23496
G1 X97.672 Y91.202 E0.03091
G1 X97.672 Y81.844 E0.26228
G1 X97.213 Y81.844 E0.01288
G1 X97.213 Y86.475 E0.12981
G1 X97.157 Y86.475 E0.00157
G1 X97.157 Y93.791 E0.20504
G1 X96.641 Y93.791 E0.01445
G1 X96.641 Y86.475 E0.20504
G1 X96.125 Y86.475 E0.01445
G1 X96.125 Y94.806 E0.23351
G1 X95.610 Y96.411 E0.04725
G1 X95.610 Y86.475 E0.27850
G1 X95.094 Y86.475 E0.01445
G1 X95.094 Y100.880 E0.40373
G1 F8640.000
G1 X95.094 Y97.588 E-0.76000
G1 E-0.04000 F2100.00000
G1 Z0.600 F10800.000
G1 X90.454 Y97.911
G1 Z0.200
G1 E0.80000 F2100.00000
G1 F1200.000
G1 X90.454 Y111.947 E0.39340
G1 X90.969 Y111.947 E0.01445
G1 X90.969 Y98.053 E0.38942
G1 X91.485 Y98.053 E0.01445
G1 X91.485 Y111.947 E0.38942
G1 X92.000 Y111.947 E0.01445
G1 X92.000 Y98.053 E0.38942
G1 X92.516 Y98.053 E0.01445
G1 X92.516 Y111.947 E0.38942
G1 X92.581 Y111.947 E0.00183
G1 X92.581 Y118.894 E0.19471
G1 X93.032 Y118.894 E0.01262
G1 X93.032 Y91.106 E0.77884
G1 X93.547 Y91.106 E0.01445
G1 X93.547 Y118.894 E0.77884
G1 X94.063 Y118.894 E0.01445
G1 X94.063 Y91.106 E0.77884
G1 X94.578 Y91.106 E0.01445
G1 X94.578 Y101.458 E0.29015
G1 X94.434 Y103.001 E0.04343
G1 X94.379 Y104.139 E0.03193
G1 X94.367 Y105.292 E0.03231
G1 X94.412 Y106.671 E0.03867
G1 X94.472 Y107.580 E0.02554
G1 X94.578 Y108.621 E0.02933
G1 X94.578 Y118.894 E0.28793
G1 X94.897 Y118.894 E0.00893
G1 X94.897 Y123.525 E0.12981
G1 X95.094 Y123.525 E0.00553
G1 X95.094 Y109.263 E0.39975
G1 X95.266 Y109.263 E0.00481
G1 X95.266 Y112.400 E0.08794
G1 X95.610 Y113.667 E0.03678
G1 X95.610 Y123.525 E0.27631
G1 X96.125 Y123.525 E0.01445
G1 X96.125 Y115.255 E0.23180
G1 X96.481 Y116.210 E0.02855
G1 X96.641 Y116.210 E0.00448
G1 X96.641 Y123.525 E0.20504
G1 X97.157 Y123.525 E0.01445
G1 X97.157 Y116.210 E0.20504
G1 X97.581 Y116.210 E0.01190
G1 X97.581 Y118.691 E0.06955
G1 X97.672 Y118.876 E0.00578
G1 X97.672 Y128.156 E0.26011
G1 X98.188 Y128.156 E0.01445
G1 X98.188 Y119.849 E0.23286
G1 X98.703 Y120.742 E0.02892
G1 X98.703 Y128.156 E0.20781
G1 X99.219 Y128.156 E0.01445
G1 X99.219 Y120.841 E0.20504
G1 X99.735 Y120.841 E0.01445
G1 X99.735 Y130.472 E0.26994
G1 X100.250 Y130.472 E0.01445
G1 X100.250 Y123.086 E0.20701
G1 X100.766 Y123.772 E0.02405
G1 X100.766 Y130.472 E0.18779
G1 X101.282 Y130.472 E0.01445
G1 X101.282 Y124.416 E0.16973
G1 X101.797 Y125.033 E0.02253
G1 X101.797 Y130.472 E0.15245
G1 X101.844 Y130.472 E0.00131
G1 X101.844 Y132.788 E0.06490
G1 X102.313 Y132.788 E0.01315
G1 X102.313 Y125.618 E0.20096
G1 X102.828 Y126.168 E0.02113
G1 X102.828 Y132.788 E0.18555
G1 X103.344 Y132.788 E0.01445
G1 X103.344 Y126.699 E0.17065
G1 X103.860 Y127.201 E0.02017
G1 X103.860 Y132.788 E0.15658
G1 X104.375 Y132.788 E0.01445
G1 X104.375 Y127.681 E0.14314
G1 X104.494 Y127.788 E0.00448
G1 X104.528 Y127.788 E0.00096
G1 X104.528 Y127.818 E0.00086
G1 X104.891 Y128.145 E0.01368
G1 X104.891 Y132.788 E0.13012
G1 X105.406 Y132.788 E0.01445
G1 X105.406 Y128.578 E0.11798
G1 X105.922 Y129.002 E0.01871
G1 X105.922 Y132.788 E0.10609
G1 X106.438 Y132.788 E0.01445
G1 X106.438 Y129.400 E0.09494
G1 X106.953 Y129.787 E0.01807
G1 X106.953 Y135.103 E0.14900
G1 X107.469 Y135.103 E0.01445
G1 X107.469 Y130.103 E0.14014
G1 X107.985 Y130.103 E0.01445
G1 X107.985 Y135.103 E0.14014
G1 X108.500 Y135.103 E0.01445
G1 X108.500 Y130.103 E0.14014
G1 X109.016 Y130.103 E0.01445
G1 X109.016 Y135.103 E0.14014
G1 X109.531 Y135.103 E0.01445
G1 X109.531 Y131.474 E0.10174
G1 X110.047 Y131.768 E0.01664
G1 X110.047 Y135.103 E0.09349
G1 X110.563 Y135.103 E0.01445
G1 X110.563 Y132.051 E0.08556
G1 X111.078 Y132.320 E0.01630
G1 X111.078 Y135.103 E0.07802
G1 X111.106 Y135.103 E0.00078
G1 X111.106 Y137.419 E0.06490
G1 X111.594 Y137.419 E0.01367
G1 X111.594 Y132.419 E0.14014
G1 X112.110 Y132.419 E0.01445
G1 X112.110 Y137.419 E0.14014
G1 X112.625 Y137.419 E0.01445
G1 X112.625 Y132.419 E0.14014
G1 X113.141 Y132.419 E0.01445
G1 X113.141 Y137.419 E0.14014
G1 X113.656 Y137.419 E0.01445
G1 X113.656 Y132.419 E0.14014
G1 X113.791 Y132.419 E0.00376
G1 X113.791 Y133.544 E0.03154
