; generated by PrusaSlicer 2.3.0+win64 on 2021-11-12 at 23:15:34 UTC

; 

; external perimeters extrusion width = 0.45mm
; perimeters extrusion width = 0.45mm
; infill extrusion width = 0.45mm
; solid infill extrusion width = 0.45mm
; top infill extrusion width = 0.40mm
; first layer extrusion width = 0.42mm

; external perimeters extrusion width = 0.45mm
; perimeters extrusion width = 0.45mm
; infill extrusion width = 0.45mm
; solid infill extrusion width = 0.45mm
; top infill extrusion width = 0.40mm
; first layer extrusion width = 0.42mm

; external perimeters extrusion width = 0.45mm
; perimeters extrusion width = 0.45mm
; infill extrusion width = 0.45mm
; solid infill extrusion width = 0.45mm
; top infill extrusion width = 0.40mm
; first layer extrusion width = 0.42mm

M73 P0 R200
M73 Q0 S203
M201 X1000 Y1000 Z200 E5000 ; sets maximum accelerations, mm/sec^2
M203 X200 Y200 Z12 E120 ; sets maximum feedrates, mm/sec
M204 P1250 R1250 T1250 ; sets acceleration (P, T) and retract acceleration (R), mm/sec^2
M205 X8.00 Y8.00 Z0.40 E4.50 ; sets the jerk limits, mm/sec
M205 S0 T0 ; sets the minimum extruding and travel feed rate, mm/sec
M107
;TYPE:Custom
M862.3 P "MK3SMMU2S" ; printer model check
M862.1 P0.4 ; nozzle diameter check
M115 U3.9.3 ; tell printer latest fw version
G90 ; use absolute coordinates
M83 ; extruder relative mode
M104 S215 ; set extruder temp
M140 S60 ; set bed temp
Tx
M190 S60 ; wait for bed temp
M109 S215 ; wait for extruder temp
G28 W ; home all without mesh bed level
G80 ; mesh bed leveling

;go outside print area
G1 Y-3.0 F1000.0
G1 Z0.4 F1000.0
; select extruder
Tc
; purge line
G1 X55.0 F2000.0
G1 Z0.3 F1000.0
G92 E0.0
G1 X240.0 E25.0 F2200.0
G1 Y-2.0 F1000.0
G1 X55.0 E25 F1400.0
M73 P0 R199
M73 Q0 S202
G1 Z0.20 F1000.0
G1 X5.0 E4.0 F1000.0

M221 S95
G92 E0.0

; Don't change E values below. Excessive value can damage the printer.
M907 E430 ; set extruder motor current
G21 ; set units to millimeters
G90 ; use absolute coordinates
M83 ; use relative distances for extrusion
M900 K0.05 ; Filament gcode LA 1.5
M900 K30 ; Filament gcode LA 1.0
;LAYER_CHANGE
;Z:0.2
;HEIGHT:0.2
;BEFORE_LAYER_CHANGE
G92 E0.0
;0.2


G1 E-0.80000 F2100.000
G1 Z0.400 F10800.000
;AFTER_LAYER_CHANGE
;0.2
G1 X63.164 Y93.693
G1 Z0.200
G1 E0.80000 F2100.000
M204 S1000
;TYPE:Skirt
;WIDTH:0.42
G1 F1200.000
G1 X62.849 Y92.869 E0.02767
G1 X62.812 Y91.541 E0.04166
G1 X62.948 Y89.861 E0.05283
G1 X63.162 Y88.821 E0.03331
G1 X63.715 Y87.174 E0.05449
G1 X64.509 Y85.641 E0.05412
G1 X65.088 Y84.789 E0.03229
G1 X65.736 Y84.005 E0.03190
G1 X66.976 Y82.819 E0.05380
G1 X67.796 Y82.208 E0.03205
G1 X69.271 Y81.359 E0.05337
G1 X70.272 Y80.939 E0.03404
G1 X71.837 Y80.487 E0.05110
G1 X72.922 Y80.313 E0.03443
G1 X74.389 Y80.245 E0.04607
G1 X78.554 Y80.431 E0.13070
G1 X86.256 Y80.969 E0.24208
G1 X94.560 Y81.824 E0.26173
G1 X101.716 Y82.787 E0.22640
G1 X105.813 Y83.436 E0.13008
G1 X111.304 Y84.422 E0.17491
G1 X117.030 Y85.578 E0.18315
G1 X126.500 Y87.815 E0.30509
G1 X132.144 Y89.333 E0.18328
G1 X136.459 Y90.593 E0.14092
G1 X140.752 Y91.933 E0.14101
G1 X146.291 Y93.794 E0.18322
G1 X155.416 Y97.174 E0.30509
G1 X160.824 Y99.382 E0.18315
G1 X165.946 Y101.602 E0.17503
G1 X171.470 Y104.166 E0.19096
G1 X176.551 Y106.662 E0.17749
G1 X181.880 Y109.452 E0.18862
G1 X186.916 Y112.229 E0.18032
G1 X190.358 Y114.222 E0.12469
G1 X194.498 Y116.767 E0.15237
G1 X195.838 Y117.926 E0.05556
G1 X197.009 Y119.316 E0.05700
G1 X197.952 Y120.894 E0.05764
G1 X198.627 Y122.597 E0.05742
G1 X199.019 Y124.378 E0.05718
G1 X199.121 Y126.211 E0.05757
G1 X198.927 Y128.031 E0.05740
G1 X198.417 Y129.869 E0.05981
G1 X197.677 Y131.476 E0.05548
G1 X196.747 Y132.937 E0.05429
G1 X196.419 Y133.322 E0.01585
G1 X195.932 Y133.679 E0.01894
G1 X195.370 Y133.901 E0.01894
G1 X194.775 Y133.975 E0.01882
G1 X194.176 Y133.897 E0.01894
G1 X64.497 Y94.722 E4.24746
G1 X63.757 Y94.346 E0.02602
G1 X63.204 Y93.738 E0.02578
;WIPE_START
G1 F8640.000
G1 X62.849 Y92.869 E-0.21670
G1 X62.812 Y91.541 E-0.30681
G1 X62.895 Y90.520 E-0.23649
;WIPE_END
G1 E-0.04000 F2100.000
G1 Z0.600 F10800.000
G1 X78.689 Y78.098
G1 Z0.200
G1 E0.80000 F2100.000
G1 F1200.000
G1 X83.009 Y78.372 E0.13572
G1 X86.583 Y78.652 E0.11240
G1 X90.488 Y79.019 E0.12300
G1 X94.450 Y79.456 E0.12498
G1 X98.757 Y80.006 E0.13613
G1 X102.306 Y80.513 E0.11240
G1 X106.180 Y81.128 E0.12301
G1 X110.112 Y81.817 E0.12516
G1 X114.373 Y82.639 E0.13605
G1 X117.879 Y83.371 E0.11230
G1 X121.709 Y84.232 E0.12310
G1 X125.580 Y85.168 E0.12485
G1 X129.787 Y86.261 E0.13630
G1 X133.392 Y87.258 E0.11726
G1 X136.955 Y88.303 E0.11642
G1 X140.868 Y89.516 E0.12848
G1 X144.804 Y90.810 E0.12988
G1 X148.545 Y92.107 E0.12414
G1 X152.233 Y93.451 E0.12310
G1 X155.589 Y94.734 E0.11266
G1 X159.622 Y96.347 E0.13617
G1 X163.273 Y97.879 E0.12413
G1 X166.895 Y99.467 E0.12403
G1 X170.508 Y101.121 E0.12458
G1 X174.054 Y102.813 E0.12319
G1 X177.268 Y104.408 E0.11249
G1 X181.145 Y106.406 E0.13674
G1 X184.618 Y108.272 E0.12363
G1 X188.062 Y110.193 E0.12366
G1 X191.507 Y112.187 E0.12479
G1 X194.963 Y114.264 E0.12643
G1 X195.874 Y114.879 E0.03446
G1 X196.727 Y115.560 E0.03424
G1 X197.523 Y116.307 E0.03421
G1 X198.265 Y117.125 E0.03462
G1 X198.933 Y117.992 E0.03432
G1 X199.534 Y118.915 E0.03453
G1 X200.062 Y119.890 E0.03477
G1 X200.503 Y120.891 E0.03430
G1 X200.865 Y121.926 E0.03436
G1 X201.143 Y122.992 E0.03457
G1 X201.335 Y124.072 E0.03438
G1 X201.440 Y125.171 E0.03460
G1 X201.456 Y126.270 E0.03449
G1 X201.384 Y127.373 E0.03465
G1 X201.223 Y128.464 E0.03458
G1 X200.974 Y129.546 E0.03479
G1 X200.635 Y130.609 E0.03500
G1 X200.233 Y131.596 E0.03340
G1 X199.757 Y132.544 E0.03326
G1 X199.208 Y133.455 E0.03335
G1 X198.251 Y134.826 E0.05241
G1 X197.384 Y135.565 E0.03573
G1 X196.273 Y136.085 E0.03847
G1 X195.046 Y136.331 E0.03923
G1 X194.143 Y136.299 E0.02833
G1 X193.347 Y136.118 E0.02558
G1 X183.245 Y130.792 E0.35808
;WIPE_START
G1 F8640.000
G1 X186.157 Y132.327 E-0.76000
;WIPE_END
G1 E-0.04000 F2100.000
G1 Z0.600 F10800.000
G1 X181.807 Y129.963
G1 Z0.200
G1 E0.80000 F2100.000
G1 F1200.000
G1 X172.875 Y124.041 E0.33603
G1 X162.520 Y119.762 E0.35130
G1 X152.609 Y114.498 E0.35186
G1 X141.869 Y111.244 E0.35186
G1 X131.509 Y106.980 E0.35129
G1 X120.503 Y104.790 E0.35186
G1 X109.775 Y101.558 E0.35129
G1 X98.626 Y100.456 E0.35129
G1 X87.615 Y98.284 E0.35187
G1 X76.895 Y98.270 E0.33613
;WIPE_START
G1 F8640.000
G1 X80.186 Y98.274 E-0.76000
;WIPE_END
G1 E-0.04000 F2100.000
G1 Z0.600 F10800.000
G1 X75.255 Y98.169
G1 Z0.200
G1 E0.80000 F2100.000
G1 F1200.000
G1 X64.256 Y97.092 E0.34653
G1 X63.136 Y96.719 E0.03700
G1 X62.383 Y96.274 E0.02744
G1 X61.239 Y95.062 E0.05223
G1 X60.787 Y94.210 E0.03028
G1 X60.509 Y93.180 E0.03345
G1 X60.475 Y91.585 E0.05001
G1 X60.520 Y90.507 E0.03383
G1 X60.649 Y89.438 E0.03377
G1 X60.864 Y88.374 E0.03402
G1 X61.159 Y87.342 E0.03366
G1 X61.544 Y86.310 E0.03452
G1 X62.057 Y85.224 E0.03765
G1 X62.601 Y84.284 E0.03407
G1 X63.192 Y83.425 E0.03270
G1 X63.926 Y82.522 E0.03649
G1 X64.670 Y81.746 E0.03372
G1 X65.463 Y81.038 E0.03333
G1 X66.326 Y80.382 E0.03397
G1 X67.254 Y79.787 E0.03457
G1 X68.270 Y79.248 E0.03606
G1 X69.244 Y78.827 E0.03326
G1 X70.231 Y78.488 E0.03274
G1 X71.342 Y78.203 E0.03596
G1 X72.636 Y77.993 E0.04108
G1 X73.639 Y77.916 E0.03155
G1 X74.654 Y77.913 E0.03183
G1 X78.689 Y78.098 E0.12664
;WIPE_START
G1 F8640.000
G1 X75.401 Y77.947 E-0.76000
;WIPE_END
G1 E-0.04000 F2100.000
G1 Z0.600 F10800.000
G1 X74.641 Y78.290
G1 Z0.200
G1 E0.80000 F2100.000
G1 F1200.000
G1 X73.661 Y78.292 E0.03074
G1 X72.672 Y78.368 E0.03108
G1 X71.428 Y78.571 E0.03954
G1 X70.346 Y78.847 E0.03499
G1 X69.386 Y79.176 E0.03182
G1 X68.440 Y79.585 E0.03233
G1 X67.451 Y80.109 E0.03509
G1 X66.548 Y80.687 E0.03362
G1 X65.709 Y81.324 E0.03304
G1 X64.937 Y82.012 E0.03241
G1 X64.214 Y82.766 E0.03275
G1 X63.489 Y83.657 E0.03600
G1 X62.916 Y84.491 E0.03175
G1 X62.394 Y85.393 E0.03265
G1 X61.888 Y86.464 E0.03716
G1 X61.519 Y87.452 E0.03308
G1 X61.232 Y88.456 E0.03273
G1 X61.023 Y89.490 E0.03309
G1 X60.895 Y90.545 E0.03330
G1 X60.852 Y91.595 E0.03294
G1 X60.885 Y93.148 E0.04873
G1 X61.131 Y94.054 E0.02941
G1 X61.533 Y94.824 E0.02726
G1 X62.599 Y95.965 E0.04895
G1 X63.277 Y96.369 E0.02473
G1 X64.314 Y96.719 E0.03434
G1 X73.400 Y97.609 E0.28624
;WIPE_START
G1 F8640.000
G1 X70.124 Y97.288 E-0.76000
;WIPE_END
G1 E-0.04000 F2100.000
G1 Z0.600 F10800.000
G1 X75.329 Y97.797
G1 Z0.200
G1 E0.80000 F2100.000
G1 F1200.000
G1 X76.311 Y97.893 E0.03094
G1 X87.652 Y97.907 E0.35560
G1 X98.672 Y100.082 E0.35217
G1 X109.849 Y101.186 E0.35215
G1 X120.603 Y104.427 E0.35216
G1 X131.618 Y106.617 E0.35215
G1 X142.004 Y110.892 E0.35216
G1 X152.754 Y114.148 E0.35215
G1 X162.673 Y119.417 E0.35215
G1 X173.053 Y123.706 E0.35217
G1 X182.508 Y129.976 E0.35571
G1 X183.387 Y130.440 E0.03116
;WIPE_START
G1 F8640.000
G1 X182.508 Y129.976 E-0.22950
G1 X180.593 Y128.707 E-0.53050
;WIPE_END
G1 E-0.04000 F2100.000
G1 Z0.600 F10800.000
G1 X185.131 Y131.361
G1 Z0.200
G1 E0.80000 F2100.000
G1 F1200.000
G1 X193.456 Y135.757 E0.29519
G1 X194.177 Y135.923 E0.02318
G1 X194.996 Y135.956 E0.02571
G1 X196.136 Y135.733 E0.03643
G1 X197.162 Y135.260 E0.03539
G1 X197.957 Y134.589 E0.03262
G1 X198.888 Y133.254 E0.05104
G1 X199.424 Y132.368 E0.03247
G1 X199.887 Y131.446 E0.03234
G1 X200.278 Y130.488 E0.03247
G1 X200.608 Y129.453 E0.03405
G1 X200.851 Y128.402 E0.03383
G1 X201.008 Y127.341 E0.03363
G1 X201.079 Y126.268 E0.03370
G1 X201.064 Y125.199 E0.03354
G1 X200.962 Y124.130 E0.03365
G1 X200.777 Y123.080 E0.03344
G1 X200.506 Y122.043 E0.03362
G1 X200.155 Y121.036 E0.03342
G1 X199.726 Y120.063 E0.03335
G1 X199.213 Y119.114 E0.03382
G1 X198.630 Y118.216 E0.03357
G1 X197.971 Y117.361 E0.03384
G1 X197.249 Y116.566 E0.03367
G1 X196.475 Y115.841 E0.03327
G1 X195.645 Y115.178 E0.03330
G1 X194.756 Y114.579 E0.03360
G1 X191.317 Y112.512 E0.12582
G1 X187.877 Y110.521 E0.12460
G1 X184.436 Y108.602 E0.12356
G1 X180.968 Y106.739 E0.12343
G1 X177.097 Y104.744 E0.13654
G1 X173.891 Y103.153 E0.11222
G1 X170.350 Y101.463 E0.12300
G1 X166.740 Y99.811 E0.12449
G1 X163.125 Y98.226 E0.12375
G1 X159.481 Y96.696 E0.12393
G1 X155.451 Y95.085 E0.13608
G1 X152.103 Y93.805 E0.11238
G1 X148.420 Y92.462 E0.12292
G1 X144.682 Y91.166 E0.12405
G1 X140.752 Y89.875 E0.12969
G1 X136.847 Y88.664 E0.12820
G1 X133.290 Y87.621 E0.11623
G1 X129.688 Y86.625 E0.11717
G1 X125.487 Y85.533 E0.13611
G1 X121.625 Y84.600 E0.12456
G1 X117.798 Y83.739 E0.12301
G1 X114.297 Y83.009 E0.11211
G1 X110.046 Y82.188 E0.13576
G1 X106.120 Y81.500 E0.12497
G1 X102.248 Y80.885 E0.12291
G1 X98.708 Y80.380 E0.11213
G1 X94.407 Y79.831 E0.13593
G1 X90.448 Y79.394 E0.12488
G1 X86.549 Y79.027 E0.12281
M73 Q0 S201
G1 X82.983 Y78.749 E0.11213
G1 X78.667 Y78.475 E0.13563
G1 X74.641 Y78.290 E0.12634
;WIPE_START
G1 F8640.000
G1 X77.929 Y78.441 E-0.76000
;WIPE_END
G1 E-0.04000 F2100.000
G1 Z0.600 F10800.000
G1 X78.644 Y78.851
G1 Z0.200
G1 E0.80000 F2100.000
G1 F1200.000
G1 X82.958 Y79.125 E0.13553
G1 X86.515 Y79.403 E0.11186
G1 X90.412 Y79.770 E0.12272
G1 X94.364 Y80.205 E0.12469
G1 X98.659 Y80.753 E0.13574
G1 X102.191 Y81.258 E0.11186
G1 X106.059 Y81.872 E0.12282
G1 X109.979 Y82.559 E0.12478
G1 X114.222 Y83.378 E0.13548
G1 X117.716 Y84.107 E0.11193
M73 P0 R198
G1 X121.541 Y84.967 E0.12292
G1 X125.393 Y85.898 E0.12427
G1 X129.589 Y86.988 E0.13592
G1 X133.185 Y87.983 E0.11699
G1 X136.740 Y89.025 E0.11614
G1 X140.636 Y90.234 E0.12791
G1 X144.560 Y91.523 E0.12949
G1 X148.292 Y92.817 E0.12386
G1 X151.972 Y94.159 E0.12282
G1 X155.312 Y95.436 E0.11211
G1 X159.339 Y97.046 E0.13598
G1 X162.978 Y98.573 E0.12373
G1 X166.584 Y100.154 E0.12347
G1 X170.192 Y101.806 E0.12440
G1 X173.727 Y103.492 E0.12282
G1 X176.925 Y105.080 E0.11195
G1 X180.791 Y107.072 E0.13634
G1 X184.253 Y108.932 E0.12324
G1 X187.692 Y110.850 E0.12347
G1 X191.126 Y112.838 E0.12441
G1 X194.550 Y114.894 E0.12522
G1 X195.416 Y115.478 E0.03274
G1 X196.223 Y116.121 E0.03235
G1 X196.975 Y116.826 E0.03232
G1 X197.677 Y117.598 E0.03272
G1 X198.318 Y118.428 E0.03289
G1 X198.885 Y119.300 E0.03262
G1 X199.384 Y120.222 E0.03287
G1 X199.802 Y121.167 E0.03240
G1 X200.147 Y122.159 E0.03294
G1 X200.410 Y123.168 E0.03266
G1 X200.590 Y124.188 E0.03249
G1 X200.688 Y125.226 E0.03270
G1 X200.702 Y126.266 E0.03259
G1 X200.632 Y127.308 E0.03275
G1 X200.480 Y128.339 E0.03268
G1 X200.243 Y129.360 E0.03288
G1 X199.922 Y130.366 E0.03309
G1 X199.540 Y131.297 E0.03154
G1 X199.090 Y132.192 E0.03142
G1 X198.569 Y133.054 E0.03159
G1 X197.662 Y134.352 E0.04965
G1 X196.940 Y134.954 E0.02948
G1 X196.042 Y135.367 E0.03098
G1 X194.946 Y135.582 E0.03500
G1 X194.213 Y135.547 E0.02303
G1 X193.567 Y135.395 E0.02082
G1 X187.007 Y131.928 E0.23265
;WIPE_START
G1 F8640.000
G1 X189.917 Y133.466 E-0.76000
;WIPE_END
G1 E-0.04000 F2100.000
G1 Z0.600 F10800.000
G1 X185.267 Y131.008
G1 Z0.200
G1 E0.80000 F2100.000
G1 F1200.000
G1 X182.692 Y129.647 E0.09133
G1 X173.231 Y123.372 E0.35598
G1 X162.825 Y119.071 E0.35303
G1 X152.898 Y113.798 E0.35245
G1 X142.140 Y110.540 E0.35245
G1 X131.728 Y106.255 E0.35302
G1 X120.703 Y104.063 E0.35245
G1 X109.922 Y100.815 E0.35302
G1 X98.718 Y99.707 E0.35302
G1 X87.690 Y97.530 E0.35246
G1 X76.339 Y97.517 E0.35590
G1 X73.474 Y97.237 E0.09026
;WIPE_START
G1 F8640.000
G1 X76.339 Y97.517 E-0.66471
G1 X76.751 Y97.518 E-0.09529
;WIPE_END
G1 E-0.04000 F2100.000
G1 Z0.600 F10800.000
G1 X71.545 Y97.048
G1 Z0.200
G1 E0.80000 F2100.000
G1 F1200.000
G1 X64.373 Y96.346 E0.22593
G1 X63.419 Y96.019 E0.03164
G1 X62.818 Y95.656 E0.02202
G1 X61.828 Y94.588 E0.04565
G1 X61.475 Y93.900 E0.02425
G1 X61.262 Y93.117 E0.02544
G1 X61.229 Y91.604 E0.04745
G1 X61.271 Y90.568 E0.03251
G1 X61.396 Y89.544 E0.03236
G1 X61.600 Y88.538 E0.03216
G1 X61.880 Y87.563 E0.03180
G1 X62.232 Y86.618 E0.03164
G1 X62.732 Y85.561 E0.03666
G1 X63.231 Y84.699 E0.03123
G1 X63.787 Y83.889 E0.03081
G1 X64.501 Y83.010 E0.03551
G1 X65.204 Y82.279 E0.03178
G1 X65.954 Y81.611 E0.03149
G1 X66.770 Y80.992 E0.03211
G1 X67.647 Y80.431 E0.03267
G1 X68.609 Y79.922 E0.03412
G1 X69.529 Y79.525 E0.03139
G1 X70.461 Y79.206 E0.03090
G1 X71.513 Y78.938 E0.03403
G1 X72.709 Y78.744 E0.03802
G1 X73.669 Y78.669 E0.03017
G1 X74.629 Y78.667 E0.03009
G1 X78.644 Y78.851 E0.12604
;WIPE_START
G1 F8640.000
G1 X75.356 Y78.700 E-0.76000
;WIPE_END
G1 E-0.04000 F2100.000
G1 Z0.600 F10800.000
G1 X74.616 Y79.044
G1 Z0.200
G1 E0.80000 F2100.000
G1 F1200.000
G1 X78.622 Y79.227 E0.12574
G1 X82.933 Y79.501 E0.13544
G1 X86.481 Y79.778 E0.11159
G1 X90.375 Y80.145 E0.12263
G1 X94.321 Y80.580 E0.12449
G1 X98.610 Y81.127 E0.13554
G1 X102.133 Y81.631 E0.11159
G1 X105.998 Y82.245 E0.12273
G1 X109.909 Y82.930 E0.12449
G1 X114.146 Y83.747 E0.13529
G1 X117.635 Y84.475 E0.11175
G1 X121.457 Y85.335 E0.12282
G1 X125.300 Y86.264 E0.12397
G1 X129.490 Y87.352 E0.13573
G1 X133.083 Y88.346 E0.11689
G1 X136.632 Y89.387 E0.11596
G1 X140.520 Y90.593 E0.12763
G1 X144.438 Y91.880 E0.12930
G1 X148.164 Y93.172 E0.12367
G1 X151.842 Y94.513 E0.12273
G1 X155.173 Y95.786 E0.11184
G1 X159.198 Y97.395 E0.13589
G1 X162.831 Y98.920 E0.12353
G1 X166.429 Y100.498 E0.12319
G1 X170.033 Y102.148 E0.12430
G1 X173.563 Y103.832 E0.12263
G1 X176.754 Y105.416 E0.11168
G1 X180.614 Y107.405 E0.13615
G1 X184.074 Y109.263 E0.12314
G1 X187.507 Y111.179 E0.12328
G1 X190.936 Y113.163 E0.12422
G1 X194.344 Y115.210 E0.12463
G1 X195.187 Y115.777 E0.03187
G1 X195.970 Y116.401 E0.03140
G1 X196.712 Y117.096 E0.03184
G1 X197.393 Y117.845 E0.03176
G1 X198.015 Y118.652 E0.03194
G1 X198.565 Y119.499 E0.03167
G1 X199.049 Y120.395 E0.03192
G1 X199.454 Y121.312 E0.03145
G1 X199.789 Y122.276 E0.03199
G1 X200.043 Y123.255 E0.03171
G1 X200.217 Y124.246 E0.03154
G1 X200.312 Y125.254 E0.03175
G1 X200.325 Y126.263 E0.03164
G1 X200.257 Y127.275 E0.03180
G1 X200.108 Y128.276 E0.03173
G1 X199.877 Y129.267 E0.03192
G1 X199.565 Y130.243 E0.03214
G1 X199.194 Y131.147 E0.03061
G1 X198.757 Y132.016 E0.03051
G1 X198.250 Y132.853 E0.03070
G1 X197.368 Y134.114 E0.04824
G1 X196.720 Y134.647 E0.02631
G1 X195.948 Y135.001 E0.02664
G1 X194.898 Y135.207 E0.03355
G1 X194.252 Y135.172 E0.02028
G1 X193.678 Y135.034 E0.01850
